(/Applications/pcbgcode.repo/pcb-gcode.ulp)
(Copyright 2005 - 2012 by John Johnson)
(See readme.txt for licensing terms.)
(This file generated from the board:)
(.../808-Diginoise/eagle/808-Diginoise.brd)
(Current profile is .../pcbgcode.repo/profiles/mach.pp  )
(This file generated 4/24/16 11:01 AM)
(Settings from pcb-machine.h)
(spindle on time = 0.0000)
(  Tool Size)
(0.0030  )
(spindle speed = 30000.0000)
(tool change at 0.0000  0.0000  1.5000  )
(feed rate xy = F20    )
(feed rate z  = F10    )
(Z Axis Settings)
(  High     Up        Down     Drill)
(0.2500  	0.0500  	-0.0035 	-0.0750 )
(Settings from pcb-defaults.h)
(isolate min = 0.0060)
(isolate max = 0.0200)
(isolate step = 0.0015)
(Generated bottom outlines, bottom drill, )
(Unit of measure: inch)
(Inch Mode)
G20
(Absolute Coordinates)
G90
S30000
G00 Z0.2500  
G00 X0.0000  Y0.0000  
M03
G04 P0.000000
G00 Z0.0500  
G00 X-0.0791 Y1.0470  
G01 Z-0.0035 F10    
G01 X-0.0789 Y1.0472  F20    
G01 X-0.0786 Y1.0475  
G01 X-0.0773 Y1.0495  
G01 X-0.0759 Y1.0514  
G01 X-0.0758 Y1.0517  
G01 X-0.0756 Y1.0520  
G01 X-0.0747 Y1.0542  
G01 X-0.0738 Y1.0564  
G01 X-0.0737 Y1.0567  
G01 X-0.0736 Y1.0570  
G01 X-0.0731 Y1.0593  
G01 X-0.0726 Y1.0616  
G01 X-0.0726 Y1.0620  
G01 X-0.0725 Y1.0623  
G01 X-0.0725 Y1.0647  
G01 X-0.0724 Y1.0671  
G01 X-0.0725 Y1.0674  
G01 X-0.0725 Y1.1932  
G01 X-0.0724 Y1.1941  
G01 X-0.0725 Y1.1959  
G01 X-0.0725 Y1.1977  
G01 X-0.0727 Y1.1986  
G01 X-0.0727 Y1.1995  
G01 X-0.0732 Y1.2013  
G01 X-0.0736 Y1.2030  
G01 X-0.0739 Y1.2039  
G01 X-0.0741 Y1.2048  
G01 X-0.0749 Y1.2064  
G01 X-0.0756 Y1.2080  
G01 X-0.0761 Y1.2088  
G01 X-0.0766 Y1.2096  
G01 X-0.0776 Y1.2110  
G01 X-0.0786 Y1.2125  
G01 X-0.0793 Y1.2132  
G01 X-0.0799 Y1.2139  
G01 X-0.0812 Y1.2151  
G01 X-0.0825 Y1.2164  
G01 X-0.0832 Y1.2169  
G01 X-0.2725 Y1.3825  
G01 X-0.2725 Y1.4009  
G01 X-0.2703 Y1.4041  
G01 X-0.2678 Y1.4102  
G01 X-0.2665 Y1.4167  
G01 X-0.2665 Y1.4233  
G01 X-0.2678 Y1.4298  
G01 X-0.2703 Y1.4359  
G01 X-0.2740 Y1.4414  
G01 X-0.2786 Y1.4460  
G01 X-0.2841 Y1.4497  
G01 X-0.2902 Y1.4522  
G01 X-0.2967 Y1.4535  
G01 X-0.3033 Y1.4535  
G01 X-0.3098 Y1.4522  
G01 X-0.3159 Y1.4497  
G01 X-0.3214 Y1.4460  
G01 X-0.3260 Y1.4414  
G01 X-0.3297 Y1.4359  
G01 X-0.3322 Y1.4298  
G01 X-0.3335 Y1.4233  
G01 X-0.3335 Y1.4167  
G01 X-0.3322 Y1.4102  
G01 X-0.3297 Y1.4041  
G01 X-0.3275 Y1.4009  
G01 X-0.3275 Y1.3718  
G01 X-0.3276 Y1.3709  
G01 X-0.3275 Y1.3691  
G01 X-0.3275 Y1.3673  
G01 X-0.3273 Y1.3664  
G01 X-0.3273 Y1.3655  
G01 X-0.3268 Y1.3637  
G01 X-0.3264 Y1.3620  
G01 X-0.3261 Y1.3611  
G01 X-0.3259 Y1.3602  
G01 X-0.3251 Y1.3586  
G01 X-0.3244 Y1.3570  
G01 X-0.3239 Y1.3562  
G01 X-0.3234 Y1.3554  
G01 X-0.3224 Y1.3540  
G01 X-0.3214 Y1.3525  
G01 X-0.3207 Y1.3518  
G01 X-0.3201 Y1.3511  
G01 X-0.3188 Y1.3499  
G01 X-0.3175 Y1.3486  
G01 X-0.3168 Y1.3481  
G01 X-0.1275 Y1.1825  
G01 X-0.1275 Y1.0839  
G01 X-0.2926 Y1.0200  
G01 X-1.1689 Y1.0200  
G01 X-1.2225 Y1.0450  
G01 X-1.2225 Y1.0496  
G01 X-1.2055 Y1.0666  
G01 X-1.2055 Y1.1034  
G01 X-1.2225 Y1.1204  
G01 X-1.2225 Y1.1496  
G01 X-1.2055 Y1.1666  
G01 X-1.2055 Y1.2034  
G01 X-1.2316 Y1.2295  
G01 X-1.2684 Y1.2295  
G01 X-1.2945 Y1.2034  
G01 X-1.2945 Y1.1666  
G01 X-1.2775 Y1.1496  
G01 X-1.2775 Y1.1204  
G01 X-1.2945 Y1.1034  
G01 X-1.2945 Y1.0666  
G01 X-1.2775 Y1.0496  
G01 X-1.2775 Y1.0281  
G01 X-1.2776 Y1.0260  
G01 X-1.2775 Y1.0254  
G01 X-1.2775 Y1.0248  
G01 X-1.2771 Y1.0227  
G01 X-1.2768 Y1.0206  
G01 X-1.2766 Y1.0201  
G01 X-1.2764 Y1.0195  
G01 X-1.2756 Y1.0175  
G01 X-1.2749 Y1.0156  
G01 X-1.2746 Y1.0150  
G01 X-1.2744 Y1.0145  
G01 X-1.2732 Y1.0127  
G01 X-1.2721 Y1.0109  
G01 X-1.2717 Y1.0105  
G01 X-1.2714 Y1.0100  
G01 X-1.2699 Y1.0085  
G01 X-1.2685 Y1.0069  
G01 X-1.2680 Y1.0066  
G01 X-1.2675 Y1.0061  
G01 X-1.2658 Y1.0050  
G01 X-1.2641 Y1.0037  
G01 X-1.2635 Y1.0035  
G01 X-1.2630 Y1.0031  
G01 X-1.2611 Y1.0023  
G01 X-1.1885 Y0.9685  
G01 X-1.1880 Y0.9681  
G01 X-1.1861 Y0.9673  
G01 X-1.1842 Y0.9664  
G01 X-1.1836 Y0.9663  
G01 X-1.1830 Y0.9661  
G01 X-1.1810 Y0.9656  
G01 X-1.1789 Y0.9651  
G01 X-1.1783 Y0.9651  
G01 X-1.1777 Y0.9650  
G01 X-1.1756 Y0.9650  
G01 X-1.1735 Y0.9649  
G01 X-1.1729 Y0.9650  
G01 X-0.2878 Y0.9650  
G01 X-0.2854 Y0.9649  
G01 X-0.2851 Y0.9650  
G01 X-0.2848 Y0.9650  
G01 X-0.2825 Y0.9655  
G01 X-0.2801 Y0.9659  
G01 X-0.2798 Y0.9660  
G01 X-0.2795 Y0.9661  
G01 X-0.2773 Y0.9670  
G01 X-0.0923 Y1.0385  
G01 X-0.0920 Y1.0386  
G01 X-0.0898 Y1.0395  
G01 X-0.0876 Y1.0403  
G01 X-0.0873 Y1.0405  
G01 X-0.0870 Y1.0406  
G01 X-0.0850 Y1.0420  
G01 X-0.0830 Y1.0432  
G01 X-0.0827 Y1.0435  
G01 X-0.0825 Y1.0436  
G01 X-0.0808 Y1.0453  
G01 X-0.0791 Y1.0470  
G00 Z0.0500  
G00 X-0.1740 Y1.0986  
G01 Z-0.0035 F10    
G01 X-0.1703 Y1.1041  F20    
G01 X-0.1678 Y1.1102  
G01 X-0.1665 Y1.1167  
G01 X-0.1665 Y1.1233  
G01 X-0.1678 Y1.1298  
G01 X-0.1703 Y1.1359  
G01 X-0.1740 Y1.1414  
G01 X-0.1786 Y1.1460  
G01 X-0.1841 Y1.1497  
G01 X-0.1902 Y1.1522  
G01 X-0.1967 Y1.1535  
G01 X-0.2033 Y1.1535  
G01 X-0.2098 Y1.1522  
G01 X-0.2159 Y1.1497  
G01 X-0.2214 Y1.1460  
G01 X-0.2260 Y1.1414  
G01 X-0.2297 Y1.1359  
G01 X-0.2322 Y1.1298  
G01 X-0.2335 Y1.1233  
G01 X-0.2335 Y1.1167  
G01 X-0.2322 Y1.1102  
G01 X-0.2297 Y1.1041  
G01 X-0.2260 Y1.0986  
G01 X-0.2214 Y1.0940  
G01 X-0.2159 Y1.0903  
G01 X-0.2098 Y1.0878  
G01 X-0.2033 Y1.0865  
G01 X-0.1967 Y1.0865  
G01 X-0.1902 Y1.0878  
G01 X-0.1841 Y1.0903  
G01 X-0.1786 Y1.0940  
G01 X-0.1740 Y1.0986  
G00 Z0.0500  
G00 X-0.2740 Y1.0986  
G01 Z-0.0035 F10    
G01 X-0.2703 Y1.1041  F20    
G01 X-0.2678 Y1.1102  
G01 X-0.2665 Y1.1167  
G01 X-0.2665 Y1.1233  
G01 X-0.2678 Y1.1298  
G01 X-0.2703 Y1.1359  
G01 X-0.2725 Y1.1391  
G01 X-0.2725 Y1.2052  
G01 X-0.2736 Y1.2105  
G01 X-0.2756 Y1.2155  
G01 X-0.2786 Y1.2200  
G01 X-0.3725 Y1.3139  
G01 X-0.3725 Y1.4009  
G01 X-0.3703 Y1.4041  
G01 X-0.3678 Y1.4102  
G01 X-0.3665 Y1.4167  
G01 X-0.3665 Y1.4233  
G01 X-0.3677 Y1.4291  
G01 X-0.1641 Y1.6046  
G01 X-0.1618 Y1.6039  
G01 X-0.1540 Y1.6026  
G01 X-0.1460 Y1.6026  
G01 X-0.1382 Y1.6039  
G01 X-0.1306 Y1.6063  
G01 X-0.1235 Y1.6100  
G01 X-0.1171 Y1.6146  
G01 X-0.1115 Y1.6203  
G01 X-0.1068 Y1.6267  
G01 X-0.1032 Y1.6338  
G01 X-0.1007 Y1.6413  
G01 X-0.0995 Y1.6492  
G01 X-0.0995 Y1.6571  
G01 X-0.1007 Y1.6650  
G01 X-0.1032 Y1.6725  
G01 X-0.1068 Y1.6796  
G01 X-0.1115 Y1.6860  
G01 X-0.1171 Y1.6917  
G01 X-0.1235 Y1.6963  
G01 X-0.1306 Y1.6999  
G01 X-0.1382 Y1.7024  
G01 X-0.1460 Y1.7036  
G01 X-0.1540 Y1.7036  
G01 X-0.1618 Y1.7024  
G01 X-0.1694 Y1.6999  
G01 X-0.1765 Y1.6963  
G01 X-0.1829 Y1.6917  
G01 X-0.1885 Y1.6860  
G01 X-0.1932 Y1.6796  
G01 X-0.1968 Y1.6725  
G01 X-0.1993 Y1.6650  
G01 X-0.2005 Y1.6571  
G01 X-0.2005 Y1.6492  
G01 X-0.2000 Y1.6463  
G01 X-0.4167 Y1.4594  
G01 X-0.4175 Y1.4589  
G01 X-0.4187 Y1.4577  
G01 X-0.4200 Y1.4566  
G01 X-0.4206 Y1.4558  
G01 X-0.4214 Y1.4550  
G01 X-0.4223 Y1.4536  
G01 X-0.4233 Y1.4523  
G01 X-0.4238 Y1.4514  
G01 X-0.4244 Y1.4505  
G01 X-0.4250 Y1.4490  
G01 X-0.4258 Y1.4474  
G01 X-0.4261 Y1.4465  
G01 X-0.4264 Y1.4455  
G01 X-0.4268 Y1.4439  
G01 X-0.4272 Y1.4422  
G01 X-0.4273 Y1.4412  
G01 X-0.4275 Y1.4402  
G01 X-0.4275 Y1.4391  
G01 X-0.4297 Y1.4359  
G01 X-0.4322 Y1.4298  
G01 X-0.4335 Y1.4233  
G01 X-0.4335 Y1.4167  
G01 X-0.4322 Y1.4102  
G01 X-0.4297 Y1.4041  
G01 X-0.4275 Y1.4009  
G01 X-0.4275 Y1.2998  
G01 X-0.4264 Y1.2945  
G01 X-0.4244 Y1.2895  
G01 X-0.4214 Y1.2850  
G01 X-0.4175 Y1.2811  
G01 X-0.3275 Y1.1911  
G01 X-0.3275 Y1.1391  
G01 X-0.3297 Y1.1359  
G01 X-0.3322 Y1.1298  
G01 X-0.3335 Y1.1233  
G01 X-0.3335 Y1.1167  
G01 X-0.3322 Y1.1102  
G01 X-0.3297 Y1.1041  
G01 X-0.3260 Y1.0986  
G01 X-0.3214 Y1.0940  
G01 X-0.3159 Y1.0903  
G01 X-0.3098 Y1.0878  
G01 X-0.3033 Y1.0865  
G01 X-0.2967 Y1.0865  
G01 X-0.2902 Y1.0878  
G01 X-0.2841 Y1.0903  
G01 X-0.2786 Y1.0940  
G01 X-0.2740 Y1.0986  
G00 Z0.0500  
G00 X-0.3740 Y1.0986  
G01 Z-0.0035 F10    
G01 X-0.3703 Y1.1041  F20    
G01 X-0.3678 Y1.1102  
G01 X-0.3665 Y1.1167  
G01 X-0.3665 Y1.1233  
G01 X-0.3678 Y1.1298  
G01 X-0.3703 Y1.1359  
G01 X-0.3740 Y1.1414  
G01 X-0.3786 Y1.1460  
G01 X-0.3802 Y1.1471  
G01 X-0.4035 Y1.2151  
G01 X-0.4039 Y1.2165  
G01 X-0.4044 Y1.2177  
G01 X-0.4049 Y1.2190  
G01 X-0.4055 Y1.2202  
G01 X-0.4061 Y1.2214  
G01 X-0.4069 Y1.2225  
G01 X-0.4076 Y1.2237  
G01 X-0.4085 Y1.2247  
G01 X-0.4093 Y1.2258  
G01 X-0.4103 Y1.2267  
G01 X-0.4112 Y1.2277  
G01 X-0.4123 Y1.2285  
G01 X-0.4132 Y1.2295  
G01 X-0.4144 Y1.2302  
G01 X-0.4155 Y1.2310  
G01 X-0.4167 Y1.2316  
G01 X-0.5707 Y1.3267  
G01 X-0.5249 Y1.7278  
G01 X-0.5165 Y1.7361  
G01 X-0.5165 Y1.7526  
G01 X-0.4469 Y1.8024  
G01 X-0.4450 Y1.8036  
G01 X-0.4447 Y1.8039  
G01 X-0.4443 Y1.8042  
G01 X-0.4428 Y1.8059  
G01 X-0.4411 Y1.8075  
G01 X-0.4409 Y1.8078  
G01 X-0.4406 Y1.8081  
G01 X-0.4394 Y1.8101  
G01 X-0.4381 Y1.8120  
G01 X-0.4380 Y1.8124  
G01 X-0.4377 Y1.8127  
G01 X-0.4369 Y1.8149  
G01 X-0.4361 Y1.8170  
G01 X-0.4360 Y1.8174  
G01 X-0.4358 Y1.8178  
G01 X-0.4354 Y1.8201  
G01 X-0.4350 Y1.8223  
G01 X-0.4350 Y1.8227  
G01 X-0.4349 Y1.8232  
G01 X-0.4350 Y1.8254  
G01 X-0.4350 Y1.9746  
G01 X-0.4349 Y1.9768  
G01 X-0.4350 Y1.9773  
G01 X-0.4350 Y1.9777  
G01 X-0.4354 Y1.9799  
G01 X-0.4358 Y1.9822  
G01 X-0.4360 Y1.9826  
G01 X-0.4361 Y1.9830  
G01 X-0.4369 Y1.9851  
G01 X-0.4377 Y1.9873  
G01 X-0.4380 Y1.9876  
G01 X-0.4381 Y1.9880  
G01 X-0.4394 Y1.9899  
G01 X-0.4406 Y1.9919  
G01 X-0.4409 Y1.9922  
G01 X-0.4411 Y1.9925  
G01 X-0.4428 Y1.9941  
G01 X-0.4443 Y1.9958  
G01 X-0.4447 Y1.9961  
G01 X-0.4450 Y1.9964  
G01 X-0.4469 Y1.9976  
G01 X-0.5225 Y2.0517  
G01 X-0.5225 Y2.0801  
G01 X-0.5165 Y2.0861  
G01 X-0.5165 Y2.1139  
G01 X-0.5244 Y2.1218  
G01 X-0.5524 Y2.4200  
G01 X-0.5524 Y2.4201  
G01 X-0.5526 Y2.4227  
G01 X-0.5529 Y2.4253  
G01 X-0.5529 Y2.4254  
G01 X-0.5529 Y2.4255  
G01 X-0.5537 Y2.4280  
G01 X-0.5544 Y2.4305  
G01 X-0.5545 Y2.4307  
G01 X-0.5557 Y2.4329  
G01 X-0.5570 Y2.4352  
G01 X-0.5571 Y2.4354  
G01 X-0.5587 Y2.4374  
G01 X-0.5604 Y2.4394  
G01 X-0.5605 Y2.4396  
G01 X-0.5625 Y2.4412  
G01 X-0.5645 Y2.4429  
G01 X-0.5647 Y2.4430  
G01 X-0.5670 Y2.4442  
G01 X-0.5693 Y2.4455  
G01 X-0.5694 Y2.4455  
G01 X-0.5720 Y2.4463  
G01 X-0.5745 Y2.4471  
G01 X-0.5746 Y2.4471  
G01 X-0.6533 Y2.4707  
G01 X-0.6589 Y2.4763  
G01 X-0.6729 Y2.5251  
G01 X-0.7024 Y2.8332  
G01 X-0.7024 Y2.8339  
G01 X-0.7027 Y2.8359  
G01 X-0.7029 Y2.8378  
G01 X-0.7031 Y2.8385  
G01 X-0.7032 Y2.8393  
G01 X-0.7039 Y2.8411  
G01 X-0.7044 Y2.8430  
G01 X-0.7048 Y2.8437  
G01 X-0.7050 Y2.8444  
G01 X-0.7061 Y2.8460  
G01 X-0.7070 Y2.8478  
G01 X-0.7075 Y2.8484  
G01 X-0.7078 Y2.8490  
G01 X-0.7092 Y2.8505  
G01 X-0.7104 Y2.8520  
G01 X-0.7110 Y2.8525  
G01 X-0.7615 Y2.9080  
G01 X-0.7658 Y2.9112  
G01 X-0.7665 Y2.9115  
G01 X-0.7665 Y2.9139  
G01 X-0.7861 Y2.9335  
G01 X-0.7881 Y2.9335  
G01 X-0.8571 Y2.9835  
G01 X-0.8575 Y2.9839  
G01 X-0.8593 Y2.9851  
G01 X-0.8611 Y2.9864  
G01 X-0.8615 Y2.9866  
G01 X-0.8620 Y2.9869  
G01 X-0.8640 Y2.9877  
G01 X-0.8660 Y2.9886  
G01 X-0.8665 Y2.9887  
G01 X-0.8670 Y2.9889  
G01 X-0.8691 Y2.9894  
G01 X-0.8713 Y2.9899  
G01 X-0.8718 Y2.9899  
G01 X-0.8723 Y2.9900  
G01 X-0.8745 Y2.9900  
G01 X-0.8767 Y2.9901  
G01 X-0.8772 Y2.9900  
G01 X-1.1362 Y2.9900  
G01 X-1.1375 Y2.9901  
G01 X-1.1389 Y2.9900  
G01 X-1.1402 Y2.9900  
G01 X-1.1416 Y2.9897  
G01 X-1.1429 Y2.9896  
G01 X-1.1442 Y2.9892  
G01 X-1.1455 Y2.9889  
G01 X-1.1468 Y2.9884  
G01 X-1.1481 Y2.9880  
G01 X-1.1493 Y2.9874  
G01 X-1.1505 Y2.9869  
G01 X-1.1517 Y2.9861  
G01 X-1.1529 Y2.9855  
G01 X-1.1539 Y2.9846  
G01 X-1.1550 Y2.9839  
G01 X-1.1560 Y2.9829  
G01 X-1.1571 Y2.9820  
G01 X-1.1579 Y2.9810  
G01 X-1.1589 Y2.9800  
G01 X-1.1596 Y2.9789  
G01 X-1.2581 Y2.8585  
G01 X-1.2639 Y2.8585  
G01 X-1.2835 Y2.8389  
G01 X-1.2835 Y2.8111  
G01 X-1.2639 Y2.7915  
G01 X-1.2361 Y2.7915  
G01 X-1.2165 Y2.8111  
G01 X-1.2165 Y2.8225  
G01 X-1.1245 Y2.9350  
G01 X-0.8839 Y2.9350  
G01 X-0.8335 Y2.8985  
G01 X-0.8335 Y2.8861  
G01 X-0.8139 Y2.8665  
G01 X-0.7981 Y2.8665  
G01 X-0.7565 Y2.8208  
G01 X-0.7274 Y2.5176  
G01 X-0.7272 Y2.5150  
G01 X-0.7271 Y2.5149  
G01 X-0.7271 Y2.5147  
G01 X-0.7264 Y2.5123  
G01 X-0.7128 Y2.4646  
G01 X-0.7135 Y2.4639  
G01 X-0.7135 Y2.4361  
G01 X-0.6939 Y2.4165  
G01 X-0.6661 Y2.4165  
G01 X-0.6656 Y2.4170  
G01 X-0.6057 Y2.3990  
G01 X-0.5793 Y2.1181  
G01 X-0.5835 Y2.1139  
G01 X-0.5835 Y2.0861  
G01 X-0.5775 Y2.0801  
G01 X-0.5775 Y2.0379  
G01 X-0.5776 Y2.0357  
G01 X-0.5775 Y2.0352  
G01 X-0.5775 Y2.0348  
G01 X-0.5771 Y2.0326  
G01 X-0.5767 Y2.0303  
G01 X-0.5765 Y2.0299  
G01 X-0.5764 Y2.0295  
G01 X-0.5756 Y2.0274  
G01 X-0.5748 Y2.0252  
G01 X-0.5745 Y2.0249  
G01 X-0.5744 Y2.0245  
G01 X-0.5731 Y2.0226  
G01 X-0.5719 Y2.0206  
G01 X-0.5716 Y2.0203  
G01 X-0.5714 Y2.0200  
G01 X-0.5697 Y2.0184  
G01 X-0.5682 Y2.0167  
G01 X-0.5678 Y2.0164  
G01 X-0.5675 Y2.0161  
G01 X-0.5656 Y2.0149  
G01 X-0.4900 Y1.9608  
G01 X-0.4900 Y1.8392  
G01 X-0.5682 Y1.7833  
G01 X-0.5719 Y1.7794  
G01 X-0.5748 Y1.7748  
G01 X-0.5761 Y1.7713  
G01 X-0.5835 Y1.7639  
G01 X-0.5835 Y1.7361  
G01 X-0.5797 Y1.7323  
G01 X-0.6145 Y1.4275  
G01 X-0.6392 Y1.4920  
G01 X-0.6400 Y1.4942  
G01 X-0.6401 Y1.4945  
G01 X-0.6403 Y1.4949  
G01 X-0.6415 Y1.4968  
G01 X-0.6427 Y1.4988  
G01 X-0.6430 Y1.4991  
G01 X-0.6432 Y1.4994  
G01 X-0.6448 Y1.5011  
G01 X-0.6463 Y1.5029  
G01 X-0.6466 Y1.5031  
G01 X-0.6469 Y1.5034  
G01 X-0.6488 Y1.5047  
G01 X-0.6969 Y1.5408  
G01 X-0.6975 Y1.5414  
G01 X-0.6991 Y1.5424  
G01 X-0.7007 Y1.5436  
G01 X-0.7013 Y1.5440  
G01 X-0.7020 Y1.5444  
G01 X-0.7038 Y1.5451  
G01 X-0.7056 Y1.5460  
G01 X-0.7063 Y1.5462  
G01 X-0.7070 Y1.5464  
G01 X-0.7089 Y1.5468  
G01 X-0.7108 Y1.5473  
G01 X-0.7116 Y1.5474  
G01 X-0.7123 Y1.5475  
G01 X-0.7143 Y1.5475  
G01 X-0.7162 Y1.5476  
G01 X-0.7170 Y1.5475  
G01 X-0.7302 Y1.5475  
G01 X-0.7432 Y1.5605  
G01 X-0.7768 Y1.5605  
G01 X-0.7898 Y1.5475  
G01 X-0.8302 Y1.5475  
G01 X-0.8432 Y1.5605  
G01 X-0.8768 Y1.5605  
G01 X-0.8898 Y1.5475  
G01 X-0.9302 Y1.5475  
G01 X-0.9432 Y1.5605  
G01 X-0.9768 Y1.5605  
G01 X-0.9898 Y1.5475  
G01 X-1.0302 Y1.5475  
G01 X-1.0432 Y1.5605  
G01 X-1.0592 Y1.5605  
G01 X-1.0777 Y1.5813  
G01 X-1.1165 Y1.6473  
G01 X-1.1165 Y1.6639  
G01 X-1.1225 Y1.6699  
G01 X-1.1225 Y1.7301  
G01 X-1.1165 Y1.7361  
G01 X-1.1165 Y1.7639  
G01 X-1.1361 Y1.7835  
G01 X-1.1639 Y1.7835  
G01 X-1.1835 Y1.7639  
G01 X-1.1835 Y1.7361  
G01 X-1.1775 Y1.7301  
G01 X-1.1775 Y1.6699  
G01 X-1.1835 Y1.6639  
G01 X-1.1835 Y1.6361  
G01 X-1.1639 Y1.6165  
G01 X-1.1622 Y1.6165  
G01 X-1.1237 Y1.5511  
G01 X-1.1224 Y1.5488  
G01 X-1.1205 Y1.5467  
G01 X-1.1005 Y1.5242  
G01 X-1.1005 Y1.5032  
G01 X-1.0768 Y1.4795  
G01 X-1.0432 Y1.4795  
G01 X-1.0302 Y1.4925  
G01 X-0.9898 Y1.4925  
G01 X-0.9768 Y1.4795  
G01 X-0.9432 Y1.4795  
G01 X-0.9302 Y1.4925  
G01 X-0.8898 Y1.4925  
G01 X-0.8768 Y1.4795  
G01 X-0.8432 Y1.4795  
G01 X-0.8302 Y1.4925  
G01 X-0.7898 Y1.4925  
G01 X-0.7768 Y1.4795  
G01 X-0.7432 Y1.4795  
G01 X-0.7302 Y1.4925  
G01 X-0.7242 Y1.4925  
G01 X-0.6879 Y1.4653  
G01 X-0.6263 Y1.3044  
G01 X-0.6261 Y1.3035  
G01 X-0.6259 Y1.3029  
G01 X-0.6257 Y1.3023  
G01 X-0.6251 Y1.3013  
G01 X-0.6247 Y1.3001  
G01 X-0.6243 Y1.2994  
G01 X-0.6239 Y1.2986  
G01 X-0.6235 Y1.2981  
G01 X-0.6232 Y1.2975  
G01 X-0.6225 Y1.2966  
G01 X-0.6218 Y1.2956  
G01 X-0.6212 Y1.2949  
G01 X-0.6207 Y1.2942  
G01 X-0.6202 Y1.2938  
G01 X-0.6198 Y1.2933  
G01 X-0.6189 Y1.2925  
G01 X-0.6181 Y1.2916  
G01 X-0.6174 Y1.2911  
G01 X-0.6168 Y1.2905  
G01 X-0.6162 Y1.2902  
G01 X-0.6157 Y1.2898  
G01 X-0.6147 Y1.2892  
G01 X-0.6137 Y1.2885  
G01 X-0.6129 Y1.2881  
G01 X-0.4528 Y1.1893  
G01 X-0.4323 Y1.1294  
G01 X-0.4335 Y1.1233  
G01 X-0.4335 Y1.1167  
G01 X-0.4322 Y1.1102  
G01 X-0.4297 Y1.1041  
G01 X-0.4260 Y1.0986  
G01 X-0.4214 Y1.0940  
G01 X-0.4159 Y1.0903  
G01 X-0.4098 Y1.0878  
G01 X-0.4033 Y1.0865  
G01 X-0.3967 Y1.0865  
G01 X-0.3902 Y1.0878  
G01 X-0.3841 Y1.0903  
G01 X-0.3786 Y1.0940  
G01 X-0.3740 Y1.0986  
G00 Z0.0500  
G00 X-0.4740 Y1.0986  
G01 Z-0.0035 F10    
G01 X-0.4703 Y1.1041  F20    
G01 X-0.4678 Y1.1102  
G01 X-0.4665 Y1.1167  
G01 X-0.4665 Y1.1233  
G01 X-0.4678 Y1.1298  
G01 X-0.4703 Y1.1359  
G01 X-0.4740 Y1.1414  
G01 X-0.4786 Y1.1460  
G01 X-0.4841 Y1.1497  
G01 X-0.4902 Y1.1522  
G01 X-0.4967 Y1.1535  
G01 X-0.5033 Y1.1535  
G01 X-0.5090 Y1.1524  
G01 X-0.6598 Y1.2056  
G01 X-0.6612 Y1.2062  
G01 X-0.6623 Y1.2065  
G01 X-0.6634 Y1.2068  
G01 X-0.6650 Y1.2071  
G01 X-0.6665 Y1.2074  
G01 X-0.6677 Y1.2074  
G01 X-0.6688 Y1.2076  
G01 X-0.6704 Y1.2075  
G01 X-0.8136 Y1.2115  
G01 X-0.8316 Y1.2295  
G01 X-0.8684 Y1.2295  
G01 X-0.8945 Y1.2034  
G01 X-0.8945 Y1.1666  
G01 X-0.8775 Y1.1496  
G01 X-0.8775 Y1.1204  
G01 X-0.8945 Y1.1034  
G01 X-0.8945 Y1.0666  
G01 X-0.8684 Y1.0405  
G01 X-0.8316 Y1.0405  
G01 X-0.8055 Y1.0666  
G01 X-0.8055 Y1.1034  
G01 X-0.8225 Y1.1204  
G01 X-0.8225 Y1.1496  
G01 X-0.8155 Y1.1565  
G01 X-0.6751 Y1.1526  
G01 X-0.5272 Y1.1004  
G01 X-0.5260 Y1.0986  
G01 X-0.5214 Y1.0940  
G01 X-0.5159 Y1.0903  
G01 X-0.5098 Y1.0878  
G01 X-0.5033 Y1.0865  
G01 X-0.4967 Y1.0865  
G01 X-0.4902 Y1.0878  
G01 X-0.4841 Y1.0903  
G01 X-0.4786 Y1.0940  
G01 X-0.4740 Y1.0986  
G00 Z0.0500  
G00 X-0.4740 Y1.3986  
G01 Z-0.0035 F10    
G01 X-0.4703 Y1.4041  F20    
G01 X-0.4678 Y1.4102  
G01 X-0.4665 Y1.4167  
G01 X-0.4665 Y1.4233  
G01 X-0.4678 Y1.4298  
G01 X-0.4703 Y1.4359  
G01 X-0.4740 Y1.4414  
G01 X-0.4786 Y1.4460  
G01 X-0.4841 Y1.4497  
G01 X-0.4902 Y1.4522  
G01 X-0.4967 Y1.4535  
G01 X-0.5033 Y1.4535  
G01 X-0.5098 Y1.4522  
G01 X-0.5159 Y1.4497  
G01 X-0.5214 Y1.4460  
G01 X-0.5260 Y1.4414  
G01 X-0.5297 Y1.4359  
G01 X-0.5322 Y1.4298  
G01 X-0.5335 Y1.4233  
G01 X-0.5335 Y1.4167  
G01 X-0.5322 Y1.4102  
G01 X-0.5297 Y1.4041  
G01 X-0.5260 Y1.3986  
G01 X-0.5214 Y1.3940  
G01 X-0.5159 Y1.3903  
G01 X-0.5098 Y1.3878  
G01 X-0.5033 Y1.3865  
G01 X-0.4967 Y1.3865  
G01 X-0.4902 Y1.3878  
G01 X-0.4841 Y1.3903  
G01 X-0.4786 Y1.3940  
G01 X-0.4740 Y1.3986  
G00 Z0.0500  
G00 X-0.2260 Y1.3986  
G01 Z-0.0035 F10    
G01 X-0.2214 Y1.3940  F20    
G01 X-0.2159 Y1.3903  
G01 X-0.2098 Y1.3878  
G01 X-0.2033 Y1.3865  
G01 X-0.1967 Y1.3865  
G01 X-0.1902 Y1.3878  
G01 X-0.1841 Y1.3903  
G01 X-0.1786 Y1.3940  
G01 X-0.1740 Y1.3986  
G01 X-0.1703 Y1.4041  
G01 X-0.1678 Y1.4102  
G01 X-0.1665 Y1.4167  
G01 X-0.1665 Y1.4233  
G01 X-0.1678 Y1.4298  
G01 X-0.1703 Y1.4359  
G01 X-0.1740 Y1.4414  
G01 X-0.1786 Y1.4460  
G01 X-0.1841 Y1.4497  
G01 X-0.1902 Y1.4522  
G01 X-0.1967 Y1.4535  
G01 X-0.2033 Y1.4535  
G01 X-0.2098 Y1.4522  
G01 X-0.2159 Y1.4497  
G01 X-0.2214 Y1.4460  
G01 X-0.2260 Y1.4414  
G01 X-0.2297 Y1.4359  
G01 X-0.2322 Y1.4298  
G01 X-0.2335 Y1.4233  
G01 X-0.2335 Y1.4167  
G01 X-0.2322 Y1.4102  
G01 X-0.2297 Y1.4041  
G01 X-0.2260 Y1.3986  
G00 Z0.0500  
G00 X-0.2211 Y1.8322  
G01 Z-0.0035 F10    
G01 X-0.2193 Y1.8304  F20    
G01 X-0.2175 Y1.8286  
G01 X-0.2174 Y1.8285  
G01 X-0.2173 Y1.8284  
G01 X-0.2151 Y1.8270  
G01 X-0.2130 Y1.8256  
G01 X-0.2129 Y1.8256  
G01 X-0.2127 Y1.8255  
G01 X-0.2104 Y1.8245  
G01 X-0.2080 Y1.8236  
G01 X-0.2079 Y1.8235  
G01 X-0.2077 Y1.8235  
G01 X-0.2052 Y1.8230  
G01 X-0.2027 Y1.8225  
G01 X-0.2025 Y1.8225  
G01 X-0.2024 Y1.8225  
G01 X-0.1998 Y1.8225  
G01 X-0.1924 Y1.8225  
G01 X-0.1885 Y1.8171  
G01 X-0.1829 Y1.8115  
G01 X-0.1765 Y1.8068  
G01 X-0.1694 Y1.8032  
G01 X-0.1618 Y1.8007  
G01 X-0.1540 Y1.7995  
G01 X-0.1460 Y1.7995  
G01 X-0.1382 Y1.8007  
G01 X-0.1306 Y1.8032  
G01 X-0.1235 Y1.8068  
G01 X-0.1171 Y1.8115  
G01 X-0.1115 Y1.8171  
G01 X-0.1068 Y1.8235  
G01 X-0.1032 Y1.8306  
G01 X-0.1007 Y1.8382  
G01 X-0.0995 Y1.8460  
G01 X-0.0995 Y1.8540  
G01 X-0.1007 Y1.8618  
G01 X-0.1032 Y1.8694  
G01 X-0.1068 Y1.8765  
G01 X-0.1115 Y1.8829  
G01 X-0.1171 Y1.8885  
G01 X-0.1235 Y1.8932  
G01 X-0.1306 Y1.8968  
G01 X-0.1382 Y1.8993  
G01 X-0.1460 Y1.9005  
G01 X-0.1540 Y1.9005  
G01 X-0.1618 Y1.8993  
G01 X-0.1694 Y1.8968  
G01 X-0.1765 Y1.8932  
G01 X-0.1829 Y1.8885  
G01 X-0.1855 Y1.8859  
G01 X-0.2323 Y1.9952  
G01 X-0.2231 Y2.2795  
G01 X-0.2165 Y2.2861  
G01 X-0.2165 Y2.3139  
G01 X-0.2361 Y2.3335  
G01 X-0.2639 Y2.3335  
G01 X-0.2835 Y2.3139  
G01 X-0.2835 Y2.2861  
G01 X-0.2781 Y2.2808  
G01 X-0.2874 Y1.9930  
G01 X-0.2875 Y1.9924  
G01 X-0.2875 Y1.9903  
G01 X-0.2876 Y1.9882  
G01 X-0.2875 Y1.9876  
G01 X-0.2875 Y1.9870  
G01 X-0.2870 Y1.9849  
G01 X-0.2867 Y1.9828  
G01 X-0.2865 Y1.9823  
G01 X-0.2863 Y1.9817  
G01 X-0.2855 Y1.9797  
G01 X-0.2848 Y1.9778  
G01 X-0.2845 Y1.9772  
G01 X-0.2253 Y1.8393  
G01 X-0.2244 Y1.8370  
G01 X-0.2243 Y1.8368  
G01 X-0.2242 Y1.8367  
G01 X-0.2228 Y1.8346  
G01 X-0.2214 Y1.8325  
G01 X-0.2212 Y1.8323  
G01 X-0.2211 Y1.8322  
G00 Z0.0500  
G00 X-0.1829 Y2.0083  
G01 Z-0.0035 F10    
G01 X-0.1765 Y2.0037  F20    
G01 X-0.1694 Y2.0001  
G01 X-0.1618 Y1.9976  
G01 X-0.1540 Y1.9964  
G01 X-0.1460 Y1.9964  
G01 X-0.1382 Y1.9976  
G01 X-0.1306 Y2.0001  
G01 X-0.1235 Y2.0037  
G01 X-0.1171 Y2.0083  
G01 X-0.1115 Y2.0140  
G01 X-0.1068 Y2.0204  
G01 X-0.1032 Y2.0275  
G01 X-0.1007 Y2.0350  
G01 X-0.0995 Y2.0429  
G01 X-0.0995 Y2.0508  
G01 X-0.1007 Y2.0587  
G01 X-0.1032 Y2.0662  
G01 X-0.1068 Y2.0733  
G01 X-0.1115 Y2.0797  
G01 X-0.1171 Y2.0854  
G01 X-0.1198 Y2.0873  
G01 X-0.0803 Y2.6923  
G01 X-0.0764 Y2.6936  
G01 X-0.0683 Y2.6977  
G01 X-0.0610 Y2.7030  
G01 X-0.0546 Y2.7094  
G01 X-0.0492 Y2.7167  
G01 X-0.0451 Y2.7248  
G01 X-0.0423 Y2.7334  
G01 X-0.0409 Y2.7423  
G01 X-0.0409 Y2.8514  
G01 X-0.0423 Y2.8603  
G01 X-0.0451 Y2.8689  
G01 X-0.0492 Y2.8770  
G01 X-0.0546 Y2.8843  
G01 X-0.0610 Y2.8907  
G01 X-0.0683 Y2.8960  
G01 X-0.0764 Y2.9001  
G01 X-0.0850 Y2.9029  
G01 X-0.0939 Y2.9044  
G01 X-0.1030 Y2.9044  
G01 X-0.1119 Y2.9029  
G01 X-0.1205 Y2.9001  
G01 X-0.1286 Y2.8960  
G01 X-0.1359 Y2.8907  
G01 X-0.1423 Y2.8843  
G01 X-0.1476 Y2.8770  
G01 X-0.1517 Y2.8689  
G01 X-0.1524 Y2.8668  
G01 X-0.5490 Y3.0491  
G01 X-0.5495 Y3.0494  
G01 X-0.5515 Y3.0502  
G01 X-0.5535 Y3.0511  
G01 X-0.5540 Y3.0512  
G01 X-0.5545 Y3.0514  
G01 X-0.5566 Y3.0519  
G01 X-0.5587 Y3.0524  
G01 X-0.5593 Y3.0524  
G01 X-0.5598 Y3.0525  
G01 X-0.5620 Y3.0525  
G01 X-0.5642 Y3.0526  
G01 X-0.5647 Y3.0525  
G01 X-1.1733 Y3.0525  
G01 X-1.1742 Y3.0526  
G01 X-1.1760 Y3.0525  
G01 X-1.1777 Y3.0525  
G01 X-1.1787 Y3.0523  
G01 X-1.1797 Y3.0522  
G01 X-1.1813 Y3.0518  
G01 X-1.1830 Y3.0514  
G01 X-1.1839 Y3.0511  
G01 X-1.1849 Y3.0508  
G01 X-1.1864 Y3.0500  
G01 X-1.1880 Y3.0494  
G01 X-1.1888 Y3.0488  
G01 X-1.3364 Y2.9750  
G01 X-1.3380 Y2.9744  
G01 X-1.3388 Y2.9738  
G01 X-1.3397 Y2.9734  
G01 X-1.3411 Y2.9723  
G01 X-1.3425 Y2.9714  
G01 X-1.3432 Y2.9707  
G01 X-1.3440 Y2.9701  
G01 X-1.3451 Y2.9688  
G01 X-1.3464 Y2.9675  
G01 X-1.3469 Y2.9667  
G01 X-1.3475 Y2.9660  
G01 X-1.3484 Y2.9645  
G01 X-1.3494 Y2.9630  
G01 X-1.3497 Y2.9621  
G01 X-1.3502 Y2.9613  
G01 X-1.3508 Y2.9596  
G01 X-1.3514 Y2.9580  
G01 X-1.3516 Y2.9571  
G01 X-1.3519 Y2.9561  
G01 X-1.3522 Y2.9544  
G01 X-1.3525 Y2.9527  
G01 X-1.3525 Y2.9517  
G01 X-1.3526 Y2.9508  
G01 X-1.3525 Y2.9490  
G01 X-1.3525 Y2.7223  
G01 X-1.3514 Y2.7170  
G01 X-1.3494 Y2.7120  
G01 X-1.3464 Y2.7075  
G01 X-1.3425 Y2.7036  
G01 X-1.3380 Y2.7006  
G01 X-1.3330 Y2.6986  
G01 X-1.3277 Y2.6975  
G01 X-1.1925 Y2.6975  
G01 X-1.1925 Y1.9521  
G01 X-1.1926 Y1.9516  
G01 X-1.1925 Y1.9494  
G01 X-1.1925 Y1.9473  
G01 X-1.1924 Y1.9467  
G01 X-1.1924 Y1.9462  
G01 X-1.1919 Y1.9441  
G01 X-1.1914 Y1.9420  
G01 X-1.1912 Y1.9414  
G01 X-1.1911 Y1.9409  
G01 X-1.1902 Y1.9389  
G01 X-1.1894 Y1.9370  
G01 X-1.1891 Y1.9365  
G01 X-1.1888 Y1.9360  
G01 X-1.1875 Y1.9342  
G01 X-1.1864 Y1.9325  
G01 X-1.1860 Y1.9321  
G01 X-1.1856 Y1.9316  
G01 X-1.1840 Y1.9302  
G01 X-1.1825 Y1.9286  
G01 X-1.1821 Y1.9283  
G01 X-1.1816 Y1.9279  
G01 X-1.1798 Y1.9268  
G01 X-1.1780 Y1.9256  
G01 X-1.1775 Y1.9254  
G01 X-1.1204 Y1.8906  
G01 X-1.2565 Y1.8518  
G01 X-1.2580 Y1.8514  
G01 X-1.2591 Y1.8510  
G01 X-1.2602 Y1.8507  
G01 X-1.2616 Y1.8500  
G01 X-1.2630 Y1.8494  
G01 X-1.2640 Y1.8487  
G01 X-1.2650 Y1.8482  
G01 X-1.2662 Y1.8472  
G01 X-1.2675 Y1.8464  
G01 X-1.2683 Y1.8456  
G01 X-1.2692 Y1.8449  
G01 X-1.2702 Y1.8436  
G01 X-1.2714 Y1.8425  
G01 X-1.2720 Y1.8416  
G01 X-1.2727 Y1.8407  
G01 X-1.2735 Y1.8393  
G01 X-1.2744 Y1.8380  
G01 X-1.2748 Y1.8370  
G01 X-1.2754 Y1.8360  
G01 X-1.2758 Y1.8345  
G01 X-1.2764 Y1.8330  
G01 X-1.2767 Y1.8319  
G01 X-1.2770 Y1.8308  
G01 X-1.2772 Y1.8293  
G01 X-1.2775 Y1.8277  
G01 X-1.2775 Y1.8266  
G01 X-1.2776 Y1.8254  
G01 X-1.2775 Y1.8239  
G01 X-1.2775 Y1.6010  
G01 X-1.2776 Y1.5993  
G01 X-1.2775 Y1.5983  
G01 X-1.2775 Y1.5973  
G01 X-1.2772 Y1.5956  
G01 X-1.2726 Y1.5593  
G01 X-1.2723 Y1.5566  
G01 X-1.2720 Y1.5539  
G01 X-1.2711 Y1.5513  
G01 X-1.2702 Y1.5488  
G01 X-1.2682 Y1.5425  
G01 X-1.5172 Y1.5425  
G01 X-1.6958 Y1.6533  
G01 X-1.7002 Y1.7315  
G01 X-1.6955 Y1.7362  
G01 X-1.6955 Y1.7638  
G01 X-1.7045 Y1.7728  
G01 X-1.7487 Y1.8833  
G01 X-1.7488 Y1.8839  
G01 X-1.7497 Y1.8858  
G01 X-1.7505 Y1.8877  
G01 X-1.7508 Y1.8882  
G01 X-1.7511 Y1.8888  
G01 X-1.7523 Y1.8905  
G01 X-1.7534 Y1.8923  
G01 X-1.7539 Y1.8927  
G01 X-1.7955 Y1.9508  
G01 X-1.7955 Y1.9638  
G01 X-1.8062 Y1.9745  
G01 X-1.8105 Y1.9927  
G01 X-1.8107 Y1.9942  
G01 X-1.8111 Y1.9953  
G01 X-1.8113 Y1.9964  
G01 X-1.8120 Y1.9978  
G01 X-1.8125 Y1.9993  
G01 X-1.8131 Y2.0003  
G01 X-1.8136 Y2.0013  
G01 X-1.8145 Y2.0026  
G01 X-1.8475 Y2.0576  
G01 X-1.8475 Y2.4636  
G01 X-1.6661 Y2.6450  
G01 X-1.6631 Y2.6495  
G01 X-1.6611 Y2.6545  
G01 X-1.6600 Y2.6598  
G01 X-1.6600 Y2.6717  
G01 X-1.6455 Y2.6862  
G01 X-1.6455 Y2.7138  
G01 X-1.6650 Y2.7332  
G01 X-1.6925 Y2.7332  
G01 X-1.7031 Y2.7226  
G01 X-1.7050 Y2.7214  
G01 X-1.7089 Y2.7175  
G01 X-1.7101 Y2.7156  
G01 X-1.7120 Y2.7138  
G01 X-1.7120 Y2.7127  
G01 X-1.7139 Y2.7080  
G01 X-1.7150 Y2.7027  
G01 X-1.7150 Y2.6739  
G01 X-1.8925 Y2.4964  
G01 X-1.8964 Y2.4925  
G01 X-1.8994 Y2.4880  
G01 X-1.9014 Y2.4830  
G01 X-1.9025 Y2.4777  
G01 X-1.9025 Y2.0507  
G01 X-1.9026 Y2.0486  
G01 X-1.9025 Y2.0480  
G01 X-1.9025 Y2.0473  
G01 X-1.9021 Y2.0453  
G01 X-1.9018 Y2.0433  
G01 X-1.9016 Y2.0426  
G01 X-1.9014 Y2.0420  
G01 X-1.9007 Y2.0401  
G01 X-1.9000 Y2.0382  
G01 X-1.8996 Y2.0376  
G01 X-1.8994 Y2.0370  
G01 X-1.8982 Y2.0353  
G01 X-1.8633 Y1.9770  
G01 X-1.8605 Y1.9652  
G01 X-1.8620 Y1.9638  
G01 X-1.8620 Y1.9362  
G01 X-1.8425 Y1.9168  
G01 X-1.8387 Y1.9168  
G01 X-1.7993 Y1.8617  
G01 X-1.7607 Y1.7651  
G01 X-1.7620 Y1.7638  
G01 X-1.7620 Y1.7362  
G01 X-1.7551 Y1.7294  
G01 X-1.7500 Y1.6363  
G01 X-1.7499 Y1.6339  
G01 X-1.7498 Y1.6336  
G01 X-1.7498 Y1.6333  
G01 X-1.7492 Y1.6309  
G01 X-1.7487 Y1.6286  
G01 X-1.7485 Y1.6283  
G01 X-1.7485 Y1.6280  
G01 X-1.7474 Y1.6259  
G01 X-1.7464 Y1.6237  
G01 X-1.7462 Y1.6234  
G01 X-1.7461 Y1.6231  
G01 X-1.7447 Y1.6212  
G01 X-1.7433 Y1.6193  
G01 X-1.7430 Y1.6191  
G01 X-1.7429 Y1.6188  
G01 X-1.7411 Y1.6172  
G01 X-1.7393 Y1.6156  
G01 X-1.7390 Y1.6154  
G01 X-1.7388 Y1.6152  
G01 X-1.7367 Y1.6140  
G01 X-1.5399 Y1.4919  
G01 X-1.5380 Y1.4906  
G01 X-1.5376 Y1.4905  
G01 X-1.5372 Y1.4902  
G01 X-1.5351 Y1.4894  
G01 X-1.5330 Y1.4886  
G01 X-1.5326 Y1.4885  
G01 X-1.5321 Y1.4883  
G01 X-1.5299 Y1.4879  
G01 X-1.5277 Y1.4875  
G01 X-1.5272 Y1.4875  
G01 X-1.5268 Y1.4874  
G01 X-1.5245 Y1.4875  
G01 X-1.2420 Y1.4875  
G01 X-1.2205 Y1.4642  
G01 X-1.2190 Y1.4625  
G01 X-1.2187 Y1.4622  
G01 X-1.2184 Y1.4619  
G01 X-1.2165 Y1.4605  
G01 X-1.1501 Y1.4088  
G01 X-1.1487 Y1.4076  
G01 X-1.1480 Y1.4072  
G01 X-1.1472 Y1.4066  
G01 X-1.1456 Y1.4058  
G01 X-1.1441 Y1.4049  
G01 X-1.1432 Y1.4046  
G01 X-1.1424 Y1.4042  
G01 X-1.1407 Y1.4037  
G01 X-1.1389 Y1.4031  
G01 X-1.1380 Y1.4030  
G01 X-1.1372 Y1.4028  
G01 X-1.1354 Y1.4026  
G01 X-1.0942 Y1.3970  
G01 X-1.0768 Y1.3795  
G01 X-1.0432 Y1.3795  
G01 X-1.0302 Y1.3925  
G01 X-1.0176 Y1.3925  
G01 X-1.1494 Y1.2295  
G01 X-1.1684 Y1.2295  
G01 X-1.1945 Y1.2034  
G01 X-1.1945 Y1.1666  
G01 X-1.1775 Y1.1496  
G01 X-1.1775 Y1.1204  
G01 X-1.1945 Y1.1034  
G01 X-1.1945 Y1.0666  
G01 X-1.1684 Y1.0405  
G01 X-1.1316 Y1.0405  
G01 X-1.1196 Y1.0525  
G01 X-1.0804 Y1.0525  
G01 X-1.0684 Y1.0405  
G01 X-1.0316 Y1.0405  
G01 X-1.0196 Y1.0525  
G01 X-0.9804 Y1.0525  
G01 X-0.9684 Y1.0405  
G01 X-0.9316 Y1.0405  
G01 X-0.9055 Y1.0666  
G01 X-0.9055 Y1.1034  
G01 X-0.9225 Y1.1204  
G01 X-0.9225 Y1.1496  
G01 X-0.9055 Y1.1666  
G01 X-0.9055 Y1.2034  
G01 X-0.9316 Y1.2295  
G01 X-0.9684 Y1.2295  
G01 X-0.9854 Y1.2125  
G01 X-1.0146 Y1.2125  
G01 X-1.0316 Y1.2295  
G01 X-1.0684 Y1.2295  
G01 X-1.0854 Y1.2125  
G01 X-1.0924 Y1.2125  
G01 X-0.9574 Y1.3795  
G01 X-0.9432 Y1.3795  
G01 X-0.9302 Y1.3925  
G01 X-0.8898 Y1.3925  
G01 X-0.8768 Y1.3795  
G01 X-0.8432 Y1.3795  
G01 X-0.8302 Y1.3925  
G01 X-0.7898 Y1.3925  
G01 X-0.7768 Y1.3795  
G01 X-0.7432 Y1.3795  
G01 X-0.7195 Y1.4032  
G01 X-0.7195 Y1.4368  
G01 X-0.7432 Y1.4605  
G01 X-0.7768 Y1.4605  
G01 X-0.7898 Y1.4475  
G01 X-0.8302 Y1.4475  
G01 X-0.8432 Y1.4605  
G01 X-0.8768 Y1.4605  
G01 X-0.8898 Y1.4475  
G01 X-0.9302 Y1.4475  
G01 X-0.9432 Y1.4605  
G01 X-0.9768 Y1.4605  
G01 X-0.9898 Y1.4475  
G01 X-1.0302 Y1.4475  
G01 X-1.0432 Y1.4605  
G01 X-1.0768 Y1.4605  
G01 X-1.0859 Y1.4513  
G01 X-1.1214 Y1.4562  
G01 X-1.1813 Y1.5028  
G01 X-1.2058 Y1.5293  
G01 X-1.2181 Y1.5661  
G01 X-1.2225 Y1.6017  
G01 X-1.2225 Y1.8043  
G01 X-1.0711 Y1.8475  
G01 X-0.9483 Y1.8475  
G01 X-0.9388 Y1.8380  
G01 X-0.9112 Y1.8380  
G01 X-0.8918 Y1.8575  
G01 X-0.8918 Y1.8850  
G01 X-0.9112 Y1.9045  
G01 X-0.9388 Y1.9045  
G01 X-0.9408 Y1.9025  
G01 X-0.9905 Y1.9025  
G01 X-0.9905 Y1.9033  
G01 X-0.9918 Y1.9098  
G01 X-0.9943 Y1.9159  
G01 X-0.9980 Y1.9214  
G01 X-1.0026 Y1.9260  
G01 X-1.0081 Y1.9297  
G01 X-1.0142 Y1.9322  
G01 X-1.0207 Y1.9335  
G01 X-1.0793 Y1.9335  
G01 X-1.0837 Y1.9326  
G01 X-1.1375 Y1.9654  
G01 X-1.1375 Y2.7184  
G01 X-1.0645 Y2.8623  
G01 X-1.0165 Y2.8691  
G01 X-1.0139 Y2.8665  
G01 X-0.9861 Y2.8665  
G01 X-0.9829 Y2.8698  
G01 X-0.9409 Y2.8638  
G01 X-0.8350 Y2.7838  
G01 X-0.8350 Y2.6242  
G01 X-0.8351 Y2.6232  
G01 X-0.8350 Y2.6215  
G01 X-0.8350 Y2.6198  
G01 X-0.8348 Y2.6188  
G01 X-0.8347 Y2.6178  
G01 X-0.8343 Y2.6161  
G01 X-0.8339 Y2.6145  
G01 X-0.8339 Y2.6144  
G01 X-0.8345 Y2.6138  
G01 X-0.8345 Y2.5862  
G01 X-0.8248 Y2.5766  
G01 X-0.8025 Y2.4574  
G01 X-0.8025 Y2.2507  
G01 X-0.8026 Y2.2486  
G01 X-0.8025 Y2.2480  
G01 X-0.8025 Y2.2473  
G01 X-0.8021 Y2.2453  
G01 X-0.8016 Y2.2417  
G01 X-0.8045 Y2.2388  
G01 X-0.8045 Y2.2112  
G01 X-0.7850 Y2.1918  
G01 X-0.7575 Y2.1918  
G01 X-0.7380 Y2.2112  
G01 X-0.7380 Y2.2388  
G01 X-0.7468 Y2.2476  
G01 X-0.7475 Y2.2520  
G01 X-0.7475 Y2.4599  
G01 X-0.7475 Y2.4624  
G01 X-0.7475 Y2.4626  
G01 X-0.7475 Y2.4627  
G01 X-0.7480 Y2.4652  
G01 X-0.7703 Y2.5840  
G01 X-0.7680 Y2.5862  
G01 X-0.7680 Y2.6138  
G01 X-0.7798 Y2.6256  
G01 X-0.7800 Y2.6262  
G01 X-0.7800 Y2.7967  
G01 X-0.7799 Y2.7986  
G01 X-0.7800 Y2.7994  
G01 X-0.7800 Y2.8002  
G01 X-0.7804 Y2.8021  
G01 X-0.7806 Y2.8040  
G01 X-0.7809 Y2.8047  
G01 X-0.7811 Y2.8055  
G01 X-0.7818 Y2.8073  
G01 X-0.7824 Y2.8091  
G01 X-0.7828 Y2.8098  
G01 X-0.7831 Y2.8105  
G01 X-0.7842 Y2.8121  
G01 X-0.7852 Y2.8138  
G01 X-0.7857 Y2.8144  
G01 X-0.7861 Y2.8150  
G01 X-0.7875 Y2.8164  
G01 X-0.7888 Y2.8178  
G01 X-0.7894 Y2.8183  
G01 X-0.7900 Y2.8189  
G01 X-0.7916 Y2.8199  
G01 X-0.9125 Y2.9112  
G01 X-0.9137 Y2.9123  
G01 X-0.9147 Y2.9129  
G01 X-0.9156 Y2.9136  
G01 X-0.9170 Y2.9143  
G01 X-0.9183 Y2.9150  
G01 X-0.9194 Y2.9154  
G01 X-0.9205 Y2.9159  
G01 X-0.9220 Y2.9163  
G01 X-0.9234 Y2.9168  
G01 X-0.9246 Y2.9170  
G01 X-0.9257 Y2.9173  
G01 X-0.9273 Y2.9174  
G01 X-0.9771 Y2.9245  
G01 X-0.9861 Y2.9335  
G01 X-1.0139 Y2.9335  
G01 X-1.0237 Y2.9237  
G01 X-1.0861 Y2.9148  
G01 X-1.0885 Y2.9145  
G01 X-1.0888 Y2.9144  
G01 X-1.0891 Y2.9143  
G01 X-1.0913 Y2.9135  
G01 X-1.0936 Y2.9128  
G01 X-1.0939 Y2.9126  
G01 X-1.0942 Y2.9125  
G01 X-1.0962 Y2.9113  
G01 X-1.0983 Y2.9101  
G01 X-1.0986 Y2.9099  
G01 X-1.0988 Y2.9098  
G01 X-1.1006 Y2.9082  
G01 X-1.1024 Y2.9066  
G01 X-1.1026 Y2.9064  
G01 X-1.1029 Y2.9062  
G01 X-1.1043 Y2.9043  
G01 X-1.1058 Y2.9024  
G01 X-1.1059 Y2.9021  
G01 X-1.1061 Y2.9018  
G01 X-1.1072 Y2.8997  
G01 X-1.1819 Y2.7525  
G01 X-1.2975 Y2.7525  
G01 X-1.2975 Y2.9330  
G01 X-1.1685 Y2.9975  
G01 X-0.5685 Y2.9975  
G01 X-0.1559 Y2.8079  
G01 X-0.1559 Y2.7423  
G01 X-0.1545 Y2.7334  
G01 X-0.1517 Y2.7248  
G01 X-0.1476 Y2.7167  
G01 X-0.1423 Y2.7094  
G01 X-0.1359 Y2.7030  
G01 X-0.1348 Y2.7022  
G01 X-0.1747 Y2.0910  
G01 X-0.1765 Y2.0900  
G01 X-0.1829 Y2.0854  
G01 X-0.1885 Y2.0797  
G01 X-0.1932 Y2.0733  
G01 X-0.1968 Y2.0662  
G01 X-0.1993 Y2.0587  
G01 X-0.2005 Y2.0508  
G01 X-0.2005 Y2.0429  
G01 X-0.1993 Y2.0350  
G01 X-0.1968 Y2.0275  
G01 X-0.1932 Y2.0204  
G01 X-0.1885 Y2.0140  
G01 X-0.1829 Y2.0083  
G00 Z0.0500  
G00 X-0.5361 Y1.9335  
G01 Z-0.0035 F10    
G01 X-0.5571 Y1.9335  F20    
G01 X-0.6181 Y1.9945  
G01 X-0.6199 Y1.9963  
G01 X-0.6222 Y1.9979  
G01 X-0.6244 Y1.9994  
G01 X-0.6270 Y2.0004  
G01 X-0.6295 Y2.0014  
G01 X-0.6321 Y2.0020  
G01 X-0.8808 Y2.0517  
G01 X-0.8821 Y2.0521  
G01 X-0.8834 Y2.0522  
G01 X-0.8848 Y2.0525  
G01 X-0.8861 Y2.0525  
G01 X-0.9031 Y2.0542  
G01 X-0.9049 Y2.0565  
G01 X-0.9090 Y2.0600  
G01 X-0.9096 Y2.0604  
G01 X-0.9112 Y2.0620  
G01 X-0.9124 Y2.0620  
G01 X-0.9137 Y2.0627  
G01 X-0.9492 Y2.0745  
G01 X-0.9915 Y2.1084  
G01 X-0.9918 Y2.1098  
G01 X-0.9943 Y2.1159  
G01 X-0.9980 Y2.1214  
G01 X-1.0026 Y2.1260  
G01 X-1.0081 Y2.1297  
G01 X-1.0142 Y2.1322  
G01 X-1.0207 Y2.1335  
G01 X-1.0793 Y2.1335  
G01 X-1.0858 Y2.1322  
G01 X-1.0919 Y2.1297  
G01 X-1.0974 Y2.1260  
G01 X-1.1020 Y2.1214  
G01 X-1.1057 Y2.1159  
G01 X-1.1082 Y2.1098  
G01 X-1.1095 Y2.1033  
G01 X-1.1095 Y2.0967  
G01 X-1.1082 Y2.0902  
G01 X-1.1057 Y2.0841  
G01 X-1.1020 Y2.0786  
G01 X-1.0974 Y2.0740  
G01 X-1.0919 Y2.0703  
G01 X-1.0858 Y2.0678  
G01 X-1.0793 Y2.0665  
G01 X-1.0271 Y2.0665  
G01 X-0.9801 Y2.0289  
G01 X-0.9785 Y2.0275  
G01 X-0.9780 Y2.0272  
G01 X-0.9776 Y2.0268  
G01 X-0.9756 Y2.0258  
G01 X-0.9738 Y2.0248  
G01 X-0.9732 Y2.0246  
G01 X-0.9728 Y2.0243  
G01 X-0.9707 Y2.0237  
G01 X-0.9582 Y2.0196  
G01 X-0.9582 Y2.0150  
G01 X-0.9388 Y1.9955  
G01 X-0.9112 Y1.9955  
G01 X-0.9074 Y1.9993  
G01 X-0.8916 Y1.9978  
G01 X-0.6511 Y1.9497  
G01 X-0.5800 Y1.8786  
G01 X-0.5755 Y1.8756  
G01 X-0.5712 Y1.8738  
G01 X-0.5639 Y1.8665  
G01 X-0.5361 Y1.8665  
G01 X-0.5165 Y1.8861  
G01 X-0.5165 Y1.9139  
G01 X-0.5361 Y1.9335  
G00 Z0.0500  
G00 X-0.7361 Y1.9335  
G01 Z-0.0035 F10    
G01 X-0.7572 Y1.9335  F20    
G01 X-0.7603 Y1.9359  
G01 X-0.8122 Y1.9619  
G01 X-0.8141 Y1.9629  
G01 X-0.8146 Y1.9631  
G01 X-0.8151 Y1.9633  
G01 X-0.8172 Y1.9639  
G01 X-0.8193 Y1.9645  
G01 X-0.8198 Y1.9646  
G01 X-0.8203 Y1.9647  
G01 X-0.8225 Y1.9649  
G01 X-0.9302 Y1.9769  
G01 X-0.9906 Y2.0037  
G01 X-0.9918 Y2.0098  
G01 X-0.9943 Y2.0159  
G01 X-0.9980 Y2.0214  
G01 X-1.0026 Y2.0260  
G01 X-1.0081 Y2.0297  
G01 X-1.0142 Y2.0322  
G01 X-1.0207 Y2.0335  
G01 X-1.0793 Y2.0335  
G01 X-1.0858 Y2.0322  
G01 X-1.0919 Y2.0297  
G01 X-1.0974 Y2.0260  
G01 X-1.1020 Y2.0214  
G01 X-1.1057 Y2.0159  
G01 X-1.1082 Y2.0098  
G01 X-1.1095 Y2.0033  
G01 X-1.1095 Y1.9967  
G01 X-1.1082 Y1.9902  
G01 X-1.1057 Y1.9841  
G01 X-1.1020 Y1.9786  
G01 X-1.0974 Y1.9740  
G01 X-1.0919 Y1.9703  
G01 X-1.0858 Y1.9678  
G01 X-1.0793 Y1.9665  
G01 X-1.0423 Y1.9665  
G01 X-0.9497 Y1.9253  
G01 X-0.9484 Y1.9246  
G01 X-0.9473 Y1.9242  
G01 X-0.9462 Y1.9238  
G01 X-0.9447 Y1.9234  
G01 X-0.9432 Y1.9230  
G01 X-0.9421 Y1.9228  
G01 X-0.9409 Y1.9226  
G01 X-0.9394 Y1.9225  
G01 X-0.8329 Y1.9107  
G01 X-0.7849 Y1.8867  
G01 X-0.7835 Y1.8863  
G01 X-0.7835 Y1.8861  
G01 X-0.7775 Y1.8801  
G01 X-0.7775 Y1.7699  
G01 X-0.7835 Y1.7639  
G01 X-0.7835 Y1.7361  
G01 X-0.7639 Y1.7165  
G01 X-0.7361 Y1.7165  
G01 X-0.7165 Y1.7361  
G01 X-0.7165 Y1.7639  
G01 X-0.7225 Y1.7699  
G01 X-0.7225 Y1.8801  
G01 X-0.7165 Y1.8861  
G01 X-0.7165 Y1.9139  
G01 X-0.7361 Y1.9335  
G00 Z0.0500  
G00 X-0.7361 Y2.0665  
G01 Z-0.0035 F10    
G01 X-0.7165 Y2.0861  F20    
G01 X-0.7165 Y2.1139  
G01 X-0.7167 Y2.1141  
G01 X-0.6620 Y2.1506  
G01 X-0.6597 Y2.1522  
G01 X-0.6575 Y2.1536  
G01 X-0.6555 Y2.1556  
G01 X-0.6537 Y2.1574  
G01 X-0.6521 Y2.1597  
G01 X-0.6506 Y2.1619  
G01 X-0.6496 Y2.1645  
G01 X-0.6486 Y2.1670  
G01 X-0.6480 Y2.1696  
G01 X-0.6475 Y2.1723  
G01 X-0.6475 Y2.1750  
G01 X-0.6475 Y2.1777  
G01 X-0.6475 Y2.3301  
G01 X-0.6415 Y2.3361  
G01 X-0.6415 Y2.3639  
G01 X-0.6611 Y2.3835  
G01 X-0.6889 Y2.3835  
G01 X-0.7085 Y2.3639  
G01 X-0.7085 Y2.3361  
G01 X-0.7025 Y2.3301  
G01 X-0.7025 Y2.1897  
G01 X-0.7628 Y2.1496  
G01 X-0.9364 Y2.1629  
G01 X-0.9905 Y2.2035  
G01 X-0.9918 Y2.2098  
G01 X-0.9943 Y2.2159  
G01 X-0.9980 Y2.2214  
G01 X-1.0026 Y2.2260  
G01 X-1.0081 Y2.2297  
G01 X-1.0142 Y2.2322  
G01 X-1.0207 Y2.2335  
G01 X-1.0793 Y2.2335  
G01 X-1.0858 Y2.2322  
G01 X-1.0919 Y2.2297  
G01 X-1.0974 Y2.2260  
G01 X-1.1020 Y2.2214  
G01 X-1.1057 Y2.2159  
G01 X-1.1082 Y2.2098  
G01 X-1.1095 Y2.2033  
G01 X-1.1095 Y2.1967  
G01 X-1.1082 Y2.1902  
G01 X-1.1057 Y2.1841  
G01 X-1.1020 Y2.1786  
G01 X-1.0974 Y2.1740  
G01 X-1.0919 Y2.1703  
G01 X-1.0858 Y2.1678  
G01 X-1.0793 Y2.1665  
G01 X-1.0207 Y2.1665  
G01 X-1.0198 Y2.1667  
G01 X-0.9593 Y2.1214  
G01 X-0.9577 Y2.1201  
G01 X-0.9575 Y2.1200  
G01 X-0.9572 Y2.1198  
G01 X-0.9554 Y2.1189  
G01 X-0.9536 Y2.1180  
G01 X-0.9533 Y2.1179  
G01 X-0.9531 Y2.1178  
G01 X-0.9511 Y2.1173  
G01 X-0.9491 Y2.1167  
G01 X-0.9488 Y2.1167  
G01 X-0.9486 Y2.1167  
G01 X-0.9465 Y2.1165  
G01 X-0.7835 Y2.1040  
G01 X-0.7835 Y2.0861  
G01 X-0.7639 Y2.0665  
G01 X-0.7361 Y2.0665  
G00 Z0.0500  
G00 X-0.8955 Y2.2112  
G01 Z-0.0035 F10    
G01 X-0.8955 Y2.2388  F20    
G01 X-0.9150 Y2.2582  
G01 X-0.9245 Y2.2582  
G01 X-0.9329 Y2.2734  
G01 X-0.8742 Y2.3165  
G01 X-0.8611 Y2.3165  
G01 X-0.8415 Y2.3361  
G01 X-0.8415 Y2.3639  
G01 X-0.8611 Y2.3835  
G01 X-0.8889 Y2.3835  
G01 X-0.9085 Y2.3639  
G01 X-0.9085 Y2.3595  
G01 X-0.9743 Y2.3113  
G01 X-0.9950 Y2.3169  
G01 X-0.9980 Y2.3214  
G01 X-1.0026 Y2.3260  
G01 X-1.0081 Y2.3297  
G01 X-1.0142 Y2.3322  
G01 X-1.0207 Y2.3335  
G01 X-1.0793 Y2.3335  
G01 X-1.0858 Y2.3322  
G01 X-1.0919 Y2.3297  
G01 X-1.0974 Y2.3260  
G01 X-1.1020 Y2.3214  
G01 X-1.1057 Y2.3159  
G01 X-1.1082 Y2.3098  
G01 X-1.1095 Y2.3033  
G01 X-1.1095 Y2.2967  
G01 X-1.1082 Y2.2902  
G01 X-1.1057 Y2.2841  
G01 X-1.1020 Y2.2786  
G01 X-1.0974 Y2.2740  
G01 X-1.0919 Y2.2703  
G01 X-1.0858 Y2.2678  
G01 X-1.0793 Y2.2665  
G01 X-1.0207 Y2.2665  
G01 X-1.0198 Y2.2667  
G01 X-0.9872 Y2.2578  
G01 X-0.9620 Y2.2125  
G01 X-0.9620 Y2.2112  
G01 X-0.9605 Y2.2097  
G01 X-0.9602 Y2.2093  
G01 X-0.9567 Y2.2051  
G01 X-0.9528 Y2.2020  
G01 X-0.9425 Y2.1918  
G01 X-0.9150 Y2.1918  
G01 X-0.8955 Y2.2112  
G00 Z0.0500  
G00 X-0.8939 Y2.4165  
G01 Z-0.0035 F10    
G01 X-0.8661 Y2.4165  F20    
G01 X-0.8465 Y2.4361  
G01 X-0.8465 Y2.4400  
G01 X-0.8425 Y2.4434  
G01 X-0.8392 Y2.4477  
G01 X-0.8367 Y2.4525  
G01 X-0.8353 Y2.4578  
G01 X-0.8349 Y2.4632  
G01 X-0.8551 Y2.6279  
G01 X-0.8602 Y2.6874  
G01 X-0.8565 Y2.6911  
G01 X-0.8565 Y2.7189  
G01 X-0.8761 Y2.7385  
G01 X-0.8810 Y2.7385  
G01 X-0.8843 Y2.7395  
G01 X-0.8896 Y2.7401  
G01 X-0.8950 Y2.7397  
G01 X-0.8991 Y2.7385  
G01 X-0.9039 Y2.7385  
G01 X-0.9235 Y2.7189  
G01 X-0.9235 Y2.6911  
G01 X-0.9150 Y2.6827  
G01 X-0.9101 Y2.6248  
G01 X-0.9101 Y2.6243  
G01 X-0.9099 Y2.6221  
G01 X-0.9097 Y2.6200  
G01 X-0.9095 Y2.6195  
G01 X-0.8928 Y2.4835  
G01 X-0.8939 Y2.4835  
G01 X-0.9038 Y2.4735  
G01 X-0.9706 Y2.4513  
G01 X-1.0329 Y2.4335  
G01 X-1.0793 Y2.4335  
G01 X-1.0858 Y2.4322  
G01 X-1.0919 Y2.4297  
G01 X-1.0974 Y2.4260  
G01 X-1.1020 Y2.4214  
G01 X-1.1057 Y2.4159  
G01 X-1.1082 Y2.4098  
G01 X-1.1095 Y2.4033  
G01 X-1.1095 Y2.3967  
G01 X-1.1082 Y2.3902  
G01 X-1.1057 Y2.3841  
G01 X-1.1020 Y2.3786  
G01 X-1.0974 Y2.3740  
G01 X-1.0919 Y2.3703  
G01 X-1.0858 Y2.3678  
G01 X-1.0793 Y2.3665  
G01 X-1.0207 Y2.3665  
G01 X-1.0142 Y2.3678  
G01 X-1.0081 Y2.3703  
G01 X-1.0026 Y2.3740  
G01 X-0.9980 Y2.3786  
G01 X-0.9943 Y2.3841  
G01 X-0.9928 Y2.3877  
G01 X-0.9570 Y2.3980  
G01 X-0.9564 Y2.3981  
G01 X-0.9544 Y2.3987  
G01 X-0.9523 Y2.3993  
G01 X-0.9518 Y2.3996  
G01 X-0.8957 Y2.4183  
G01 X-0.8939 Y2.4165  
G00 Z0.0500  
G00 X-0.9980 Y2.4786  
G01 Z-0.0035 F10    
G01 X-0.9943 Y2.4841  F20    
G01 X-0.9918 Y2.4902  
G01 X-0.9905 Y2.4967  
G01 X-0.9905 Y2.5033  
G01 X-0.9918 Y2.5098  
G01 X-0.9943 Y2.5159  
G01 X-0.9952 Y2.5171  
G01 X-0.9654 Y2.5668  
G01 X-0.9450 Y2.5668  
G01 X-0.9255 Y2.5862  
G01 X-0.9255 Y2.6138  
G01 X-0.9450 Y2.6332  
G01 X-0.9692 Y2.6332  
G01 X-0.9732 Y2.6355  
G01 X-0.9732 Y2.6357  
G01 X-1.0288 Y2.7177  
G01 X-1.0326 Y2.7215  
G01 X-1.0371 Y2.7245  
G01 X-1.0421 Y2.7265  
G01 X-1.0475 Y2.7275  
G01 X-1.0529 Y2.7275  
G01 X-1.0582 Y2.7264  
G01 X-1.0613 Y2.7251  
G01 X-1.0629 Y2.7253  
G01 X-1.0761 Y2.7385  
G01 X-1.1039 Y2.7385  
G01 X-1.1235 Y2.7189  
G01 X-1.1235 Y2.6911  
G01 X-1.1039 Y2.6715  
G01 X-1.0761 Y2.6715  
G01 X-1.0689 Y2.6787  
G01 X-1.0688 Y2.6787  
G01 X-1.0187 Y2.6048  
G01 X-1.0149 Y2.6010  
G01 X-1.0106 Y2.5982  
G01 X-1.0495 Y2.5335  
G01 X-1.0793 Y2.5335  
G01 X-1.0858 Y2.5322  
G01 X-1.0919 Y2.5297  
G01 X-1.0974 Y2.5260  
G01 X-1.1020 Y2.5214  
G01 X-1.1057 Y2.5159  
G01 X-1.1082 Y2.5098  
G01 X-1.1095 Y2.5033  
G01 X-1.1095 Y2.4967  
G01 X-1.1082 Y2.4902  
G01 X-1.1057 Y2.4841  
G01 X-1.1020 Y2.4786  
G01 X-1.0974 Y2.4740  
G01 X-1.0919 Y2.4703  
G01 X-1.0858 Y2.4678  
G01 X-1.0793 Y2.4665  
G01 X-1.0207 Y2.4665  
G01 X-1.0142 Y2.4678  
G01 X-1.0081 Y2.4703  
G01 X-1.0026 Y2.4740  
G01 X-0.9980 Y2.4786  
G00 Z0.0500  
G00 X-1.2980 Y2.4786  
G01 Z-0.0035 F10    
G01 X-1.2943 Y2.4841  F20    
G01 X-1.2918 Y2.4902  
G01 X-1.2905 Y2.4967  
G01 X-1.2905 Y2.5033  
G01 X-1.2918 Y2.5098  
G01 X-1.2943 Y2.5159  
G01 X-1.2980 Y2.5214  
G01 X-1.3026 Y2.5260  
G01 X-1.3081 Y2.5297  
G01 X-1.3142 Y2.5322  
G01 X-1.3207 Y2.5335  
G01 X-1.3225 Y2.5335  
G01 X-1.3225 Y2.6239  
G01 X-1.3224 Y2.6254  
G01 X-1.3225 Y2.6266  
G01 X-1.3225 Y2.6277  
G01 X-1.3228 Y2.6292  
G01 X-1.3230 Y2.6308  
G01 X-1.3233 Y2.6319  
G01 X-1.3236 Y2.6330  
G01 X-1.3242 Y2.6345  
G01 X-1.3246 Y2.6360  
G01 X-1.3252 Y2.6370  
G01 X-1.3256 Y2.6380  
G01 X-1.3265 Y2.6393  
G01 X-1.3273 Y2.6407  
G01 X-1.3280 Y2.6416  
G01 X-1.3286 Y2.6425  
G01 X-1.3297 Y2.6436  
G01 X-1.4655 Y2.8041  
G01 X-1.4661 Y2.8050  
G01 X-1.4672 Y2.8061  
G01 X-1.4683 Y2.8073  
G01 X-1.4692 Y2.8080  
G01 X-1.4700 Y2.8089  
G01 X-1.4713 Y2.8097  
G01 X-1.4725 Y2.8107  
G01 X-1.4735 Y2.8112  
G01 X-1.4745 Y2.8119  
G01 X-1.4759 Y2.8125  
G01 X-1.4773 Y2.8132  
G01 X-1.4784 Y2.8135  
G01 X-1.4795 Y2.8139  
G01 X-1.4810 Y2.8142  
G01 X-1.4825 Y2.8147  
G01 X-1.4837 Y2.8148  
G01 X-1.4848 Y2.8150  
G01 X-1.4864 Y2.8150  
G01 X-1.4879 Y2.8151  
G01 X-1.4891 Y2.8150  
G01 X-1.7152 Y2.8150  
G01 X-1.7205 Y2.8139  
G01 X-1.7255 Y2.8119  
G01 X-1.7300 Y2.8089  
G01 X-1.9550 Y2.5839  
G01 X-1.9589 Y2.5800  
G01 X-1.9619 Y2.5755  
G01 X-1.9639 Y2.5705  
G01 X-1.9650 Y2.5652  
G01 X-1.9650 Y1.6017  
G01 X-1.9651 Y1.6007  
G01 X-1.9650 Y1.5990  
G01 X-1.9650 Y1.5973  
G01 X-1.9648 Y1.5963  
G01 X-1.9647 Y1.5953  
G01 X-1.9643 Y1.5936  
G01 X-1.9639 Y1.5920  
G01 X-1.9636 Y1.5910  
G01 X-1.9633 Y1.5900  
G01 X-1.9625 Y1.5885  
G01 X-1.9619 Y1.5870  
G01 X-1.9613 Y1.5861  
G01 X-1.9608 Y1.5852  
G01 X-1.9598 Y1.5839  
G01 X-1.9589 Y1.5825  
G01 X-1.9581 Y1.5817  
G01 X-1.9575 Y1.5809  
G01 X-1.9562 Y1.5798  
G01 X-1.9550 Y1.5786  
G01 X-1.9542 Y1.5781  
G01 X-1.9534 Y1.5774  
G01 X-1.9519 Y1.5766  
G01 X-1.9505 Y1.5756  
G01 X-1.9496 Y1.5752  
G01 X-1.3775 Y1.2515  
G01 X-1.3775 Y1.2204  
G01 X-1.3945 Y1.2034  
G01 X-1.3945 Y1.1666  
G01 X-1.3775 Y1.1496  
G01 X-1.3775 Y1.1204  
G01 X-1.3945 Y1.1034  
G01 X-1.3945 Y1.0666  
G01 X-1.3684 Y1.0405  
G01 X-1.3316 Y1.0405  
G01 X-1.3055 Y1.0666  
G01 X-1.3055 Y1.1034  
G01 X-1.3225 Y1.1204  
G01 X-1.3225 Y1.1496  
G01 X-1.3055 Y1.1666  
G01 X-1.3055 Y1.2034  
G01 X-1.3225 Y1.2204  
G01 X-1.3225 Y1.2658  
G01 X-1.3224 Y1.2668  
G01 X-1.3225 Y1.2685  
G01 X-1.3225 Y1.2702  
G01 X-1.3227 Y1.2712  
G01 X-1.3228 Y1.2722  
G01 X-1.3232 Y1.2739  
G01 X-1.3236 Y1.2755  
G01 X-1.3239 Y1.2765  
G01 X-1.3242 Y1.2775  
G01 X-1.3250 Y1.2790  
G01 X-1.3256 Y1.2805  
G01 X-1.3262 Y1.2814  
G01 X-1.3267 Y1.2823  
G01 X-1.3277 Y1.2836  
G01 X-1.3286 Y1.2850  
G01 X-1.3294 Y1.2858  
G01 X-1.3300 Y1.2866  
G01 X-1.3313 Y1.2877  
G01 X-1.3325 Y1.2889  
G01 X-1.3333 Y1.2894  
G01 X-1.3341 Y1.2901  
G01 X-1.3356 Y1.2909  
G01 X-1.3370 Y1.2919  
G01 X-1.3379 Y1.2923  
G01 X-1.9100 Y1.6160  
G01 X-1.9100 Y2.5511  
G01 X-1.7011 Y2.7600  
G01 X-1.5003 Y2.7600  
G01 X-1.3775 Y2.6149  
G01 X-1.3775 Y2.5335  
G01 X-1.3793 Y2.5335  
G01 X-1.3858 Y2.5322  
G01 X-1.3919 Y2.5297  
G01 X-1.3974 Y2.5260  
G01 X-1.4020 Y2.5214  
G01 X-1.4057 Y2.5159  
G01 X-1.4082 Y2.5098  
G01 X-1.4095 Y2.5033  
G01 X-1.4095 Y2.4967  
G01 X-1.4082 Y2.4902  
G01 X-1.4057 Y2.4841  
G01 X-1.4020 Y2.4786  
G01 X-1.3974 Y2.4740  
G01 X-1.3919 Y2.4703  
G01 X-1.3858 Y2.4678  
G01 X-1.3793 Y2.4665  
G01 X-1.3207 Y2.4665  
G01 X-1.3142 Y2.4678  
G01 X-1.3081 Y2.4703  
G01 X-1.3026 Y2.4740  
G01 X-1.2980 Y2.4786  
G00 Z0.0500  
G00 X-1.3026 Y2.4260  
G01 Z-0.0035 F10    
G01 X-1.3081 Y2.4297  F20    
G01 X-1.3142 Y2.4322  
G01 X-1.3207 Y2.4335  
G01 X-1.3793 Y2.4335  
G01 X-1.3816 Y2.4330  
G01 X-1.4665 Y2.5179  
G01 X-1.4665 Y2.5293  
G01 X-1.4678 Y2.5358  
G01 X-1.4703 Y2.5419  
G01 X-1.4740 Y2.5474  
G01 X-1.4786 Y2.5520  
G01 X-1.4841 Y2.5557  
G01 X-1.4850 Y2.5560  
G01 X-1.4850 Y2.7027  
G01 X-1.4861 Y2.7080  
G01 X-1.4880 Y2.7127  
G01 X-1.4880 Y2.7138  
G01 X-1.4899 Y2.7156  
G01 X-1.4911 Y2.7175  
G01 X-1.4950 Y2.7214  
G01 X-1.4969 Y2.7226  
G01 X-1.5075 Y2.7332  
G01 X-1.5350 Y2.7332  
G01 X-1.5545 Y2.7138  
G01 X-1.5545 Y2.6862  
G01 X-1.5400 Y2.6717  
G01 X-1.5400 Y2.5098  
G01 X-1.5389 Y2.5045  
G01 X-1.5369 Y2.4995  
G01 X-1.5339 Y2.4950  
G01 X-1.5335 Y2.4946  
G01 X-1.5335 Y2.4707  
G01 X-1.5322 Y2.4642  
G01 X-1.5297 Y2.4581  
G01 X-1.5260 Y2.4526  
G01 X-1.5214 Y2.4480  
G01 X-1.5159 Y2.4443  
G01 X-1.5098 Y2.4418  
G01 X-1.5033 Y2.4405  
G01 X-1.4967 Y2.4405  
G01 X-1.4902 Y2.4418  
G01 X-1.4841 Y2.4443  
G01 X-1.4786 Y2.4480  
G01 X-1.4765 Y2.4501  
G01 X-1.4050 Y2.3786  
G01 X-1.4005 Y2.3756  
G01 X-1.3979 Y2.3746  
G01 X-1.3974 Y2.3740  
G01 X-1.3919 Y2.3703  
G01 X-1.3858 Y2.3678  
G01 X-1.3793 Y2.3665  
G01 X-1.3207 Y2.3665  
G01 X-1.3142 Y2.3678  
G01 X-1.3081 Y2.3703  
G01 X-1.3026 Y2.3740  
G01 X-1.2980 Y2.3786  
G01 X-1.2943 Y2.3841  
G01 X-1.2918 Y2.3902  
G01 X-1.2905 Y2.3967  
G01 X-1.2905 Y2.4033  
G01 X-1.2918 Y2.4098  
G01 X-1.2943 Y2.4159  
G01 X-1.2980 Y2.4214  
G01 X-1.3026 Y2.4260  
G00 Z0.0500  
G00 X-1.2650 Y2.3670  
G01 Z-0.0035 F10    
G01 X-1.3320 Y2.3335  F20    
G01 X-1.3773 Y2.3335  
G01 X-1.4508 Y2.3482  
G01 X-1.4611 Y2.3585  
G01 X-1.4889 Y2.3585  
G01 X-1.5085 Y2.3389  
G01 X-1.5085 Y2.3111  
G01 X-1.4889 Y2.2915  
G01 X-1.4611 Y2.2915  
G01 X-1.4589 Y2.2937  
G01 X-1.4049 Y2.2829  
G01 X-1.4020 Y2.2786  
G01 X-1.3974 Y2.2740  
G01 X-1.3919 Y2.2703  
G01 X-1.3858 Y2.2678  
G01 X-1.3793 Y2.2665  
G01 X-1.3207 Y2.2665  
G01 X-1.3142 Y2.2678  
G01 X-1.3081 Y2.2703  
G01 X-1.3026 Y2.2740  
G01 X-1.2980 Y2.2786  
G01 X-1.2943 Y2.2841  
G01 X-1.2918 Y2.2902  
G01 X-1.2914 Y2.2923  
G01 X-1.2261 Y2.3250  
G01 X-1.2245 Y2.3256  
G01 X-1.2237 Y2.3262  
G01 X-1.2228 Y2.3266  
G01 X-1.2214 Y2.3277  
G01 X-1.2200 Y2.3286  
G01 X-1.2193 Y2.3293  
G01 X-1.2185 Y2.3299  
G01 X-1.2174 Y2.3312  
G01 X-1.2161 Y2.3325  
G01 X-1.2156 Y2.3333  
G01 X-1.2150 Y2.3340  
G01 X-1.2141 Y2.3355  
G01 X-1.2131 Y2.3370  
G01 X-1.2128 Y2.3379  
G01 X-1.2123 Y2.3387  
G01 X-1.2117 Y2.3404  
G01 X-1.2111 Y2.3420  
G01 X-1.2109 Y2.3429  
G01 X-1.2106 Y2.3439  
G01 X-1.2103 Y2.3456  
G01 X-1.2100 Y2.3473  
G01 X-1.2100 Y2.3483  
G01 X-1.2099 Y2.3492  
G01 X-1.2100 Y2.3510  
G01 X-1.2100 Y2.5902  
G01 X-1.2111 Y2.5955  
G01 X-1.2131 Y2.6005  
G01 X-1.2161 Y2.6050  
G01 X-1.2194 Y2.6083  
G01 X-1.2165 Y2.6111  
G01 X-1.2165 Y2.6389  
G01 X-1.2361 Y2.6585  
G01 X-1.2639 Y2.6585  
G01 X-1.2835 Y2.6389  
G01 X-1.2835 Y2.6111  
G01 X-1.2646 Y2.5922  
G01 X-1.2650 Y2.5902  
G01 X-1.2650 Y2.3670  
G00 Z0.0500  
G00 X-1.3026 Y2.2260  
G01 Z-0.0035 F10    
G01 X-1.3081 Y2.2297  F20    
G01 X-1.3142 Y2.2322  
G01 X-1.3207 Y2.2335  
G01 X-1.3793 Y2.2335  
G01 X-1.3858 Y2.2322  
G01 X-1.3919 Y2.2297  
G01 X-1.3974 Y2.2260  
G01 X-1.3979 Y2.2255  
G01 X-1.4013 Y2.2240  
G01 X-1.4862 Y2.1633  
G01 X-1.5665 Y2.1472  
G01 X-1.5665 Y2.1793  
G01 X-1.5678 Y2.1858  
G01 X-1.5703 Y2.1919  
G01 X-1.5740 Y2.1974  
G01 X-1.5786 Y2.2020  
G01 X-1.5841 Y2.2057  
G01 X-1.5902 Y2.2082  
G01 X-1.5967 Y2.2095  
G01 X-1.6033 Y2.2095  
G01 X-1.6098 Y2.2082  
G01 X-1.6159 Y2.2057  
G01 X-1.6214 Y2.2020  
G01 X-1.6260 Y2.1974  
G01 X-1.6297 Y2.1919  
G01 X-1.6322 Y2.1858  
G01 X-1.6335 Y2.1793  
G01 X-1.6335 Y2.1553  
G01 X-1.6341 Y2.1547  
G01 X-1.6371 Y2.1501  
G01 X-1.6391 Y2.1451  
G01 X-1.6635 Y2.0106  
G01 X-1.6820 Y1.9832  
G01 X-1.6850 Y1.9832  
G01 X-1.7045 Y1.9638  
G01 X-1.7045 Y1.9362  
G01 X-1.6850 Y1.9168  
G01 X-1.6575 Y1.9168  
G01 X-1.6380 Y1.9362  
G01 X-1.6380 Y1.9501  
G01 X-1.6161 Y1.9826  
G01 X-1.6159 Y1.9828  
G01 X-1.6145 Y1.9849  
G01 X-1.6132 Y1.9869  
G01 X-1.6131 Y1.9871  
G01 X-1.6129 Y1.9874  
G01 X-1.6120 Y1.9896  
G01 X-1.6111 Y1.9919  
G01 X-1.6110 Y1.9921  
G01 X-1.6109 Y1.9924  
G01 X-1.6105 Y1.9948  
G01 X-1.6100 Y1.9972  
G01 X-1.6100 Y1.9975  
G01 X-1.5940 Y2.0857  
G01 X-1.4719 Y2.1101  
G01 X-1.4714 Y2.1101  
G01 X-1.4692 Y2.1106  
G01 X-1.4670 Y2.1111  
G01 X-1.4666 Y2.1112  
G01 X-1.4662 Y2.1113  
G01 X-1.4641 Y2.1123  
G01 X-1.4619 Y2.1131  
G01 X-1.4616 Y2.1134  
G01 X-1.4612 Y2.1135  
G01 X-1.4594 Y2.1149  
G01 X-1.4574 Y2.1162  
G01 X-1.4572 Y2.1165  
G01 X-1.3854 Y2.1677  
G01 X-1.3793 Y2.1665  
G01 X-1.3207 Y2.1665  
G01 X-1.3142 Y2.1678  
G01 X-1.3081 Y2.1703  
G01 X-1.3026 Y2.1740  
G01 X-1.2980 Y2.1786  
G01 X-1.2943 Y2.1841  
G01 X-1.2918 Y2.1902  
G01 X-1.2905 Y2.1967  
G01 X-1.2905 Y2.2033  
G01 X-1.2918 Y2.2098  
G01 X-1.2943 Y2.2159  
G01 X-1.2980 Y2.2214  
G01 X-1.3026 Y2.2260  
G00 Z0.0500  
G00 X-1.3026 Y2.1260  
G01 Z-0.0035 F10    
G01 X-1.3081 Y2.1297  F20    
G01 X-1.3142 Y2.1322  
G01 X-1.3207 Y2.1335  
G01 X-1.3793 Y2.1335  
G01 X-1.3858 Y2.1322  
G01 X-1.3919 Y2.1297  
G01 X-1.3974 Y2.1260  
G01 X-1.3979 Y2.1254  
G01 X-1.4005 Y2.1244  
G01 X-1.4050 Y2.1214  
G01 X-1.4641 Y2.0623  
G01 X-1.4848 Y2.0572  
G01 X-1.4861 Y2.0585  
G01 X-1.5139 Y2.0585  
G01 X-1.5335 Y2.0389  
G01 X-1.5335 Y2.0304  
G01 X-1.5930 Y1.9709  
G01 X-1.5935 Y1.9705  
G01 X-1.5949 Y1.9690  
G01 X-1.5964 Y1.9675  
G01 X-1.5967 Y1.9670  
G01 X-1.5972 Y1.9665  
G01 X-1.5982 Y1.9647  
G01 X-1.5994 Y1.9630  
G01 X-1.5996 Y1.9624  
G01 X-1.6732 Y1.8397  
G01 X-1.6744 Y1.8380  
G01 X-1.6746 Y1.8374  
G01 X-1.6750 Y1.8368  
G01 X-1.6757 Y1.8349  
G01 X-1.6764 Y1.8330  
G01 X-1.6766 Y1.8324  
G01 X-1.6768 Y1.8317  
G01 X-1.6771 Y1.8297  
G01 X-1.6775 Y1.8277  
G01 X-1.6775 Y1.8270  
G01 X-1.6776 Y1.8264  
G01 X-1.6775 Y1.8243  
G01 X-1.6775 Y1.7017  
G01 X-1.6776 Y1.7008  
G01 X-1.6775 Y1.6990  
G01 X-1.6775 Y1.6973  
G01 X-1.6773 Y1.6963  
G01 X-1.6772 Y1.6954  
G01 X-1.6768 Y1.6937  
G01 X-1.6764 Y1.6920  
G01 X-1.6761 Y1.6911  
G01 X-1.6758 Y1.6902  
G01 X-1.6750 Y1.6886  
G01 X-1.6744 Y1.6870  
G01 X-1.6738 Y1.6862  
G01 X-1.6734 Y1.6853  
G01 X-1.6723 Y1.6839  
G01 X-1.6714 Y1.6825  
G01 X-1.6707 Y1.6818  
G01 X-1.6701 Y1.6810  
G01 X-1.6688 Y1.6799  
G01 X-1.6675 Y1.6786  
G01 X-1.6667 Y1.6781  
G01 X-1.6660 Y1.6775  
G01 X-1.6645 Y1.6766  
G01 X-1.6630 Y1.6756  
G01 X-1.6621 Y1.6753  
G01 X-1.4896 Y1.5767  
G01 X-1.4883 Y1.5758  
G01 X-1.4873 Y1.5753  
G01 X-1.4863 Y1.5748  
G01 X-1.4848 Y1.5743  
G01 X-1.4833 Y1.5737  
G01 X-1.4822 Y1.5734  
G01 X-1.4812 Y1.5731  
G01 X-1.4796 Y1.5729  
G01 X-1.4780 Y1.5725  
G01 X-1.4769 Y1.5725  
G01 X-1.4758 Y1.5724  
G01 X-1.4742 Y1.5725  
G01 X-1.4726 Y1.5725  
G01 X-1.4715 Y1.5727  
G01 X-1.4704 Y1.5728  
G01 X-1.4689 Y1.5732  
G01 X-1.4673 Y1.5735  
G01 X-1.4662 Y1.5739  
G01 X-1.4652 Y1.5742  
G01 X-1.4637 Y1.5749  
G01 X-1.3597 Y1.6165  
G01 X-1.3361 Y1.6165  
G01 X-1.3165 Y1.6361  
G01 X-1.3165 Y1.6639  
G01 X-1.3361 Y1.6835  
G01 X-1.3639 Y1.6835  
G01 X-1.3796 Y1.6678  
G01 X-1.4729 Y1.6305  
G01 X-1.6225 Y1.7160  
G01 X-1.6225 Y1.8174  
G01 X-1.5532 Y1.9329  
G01 X-1.4946 Y1.9915  
G01 X-1.4861 Y1.9915  
G01 X-1.4746 Y2.0030  
G01 X-1.4440 Y2.0107  
G01 X-1.4420 Y2.0111  
G01 X-1.4414 Y2.0113  
G01 X-1.4407 Y2.0115  
G01 X-1.4389 Y2.0123  
G01 X-1.4370 Y2.0131  
G01 X-1.4364 Y2.0135  
G01 X-1.4358 Y2.0138  
G01 X-1.4342 Y2.0150  
G01 X-1.4325 Y2.0161  
G01 X-1.4320 Y2.0166  
G01 X-1.4315 Y2.0170  
G01 X-1.4301 Y2.0185  
G01 X-1.3816 Y2.0670  
G01 X-1.3793 Y2.0665  
G01 X-1.3207 Y2.0665  
G01 X-1.3142 Y2.0678  
G01 X-1.3081 Y2.0703  
G01 X-1.3026 Y2.0740  
G01 X-1.2980 Y2.0786  
G01 X-1.2943 Y2.0841  
G01 X-1.2918 Y2.0902  
G01 X-1.2905 Y2.0967  
G01 X-1.2905 Y2.1033  
G01 X-1.2918 Y2.1098  
G01 X-1.2943 Y2.1159  
G01 X-1.2980 Y2.1214  
G01 X-1.3026 Y2.1260  
G00 Z0.0500  
G00 X-1.3026 Y2.0260  
G01 Z-0.0035 F10    
G01 X-1.3081 Y2.0297  F20    
G01 X-1.3142 Y2.0322  
G01 X-1.3207 Y2.0335  
G01 X-1.3793 Y2.0335  
G01 X-1.3858 Y2.0322  
G01 X-1.3919 Y2.0297  
G01 X-1.3974 Y2.0260  
G01 X-1.4020 Y2.0214  
G01 X-1.4057 Y2.0159  
G01 X-1.4082 Y2.0098  
G01 X-1.4089 Y2.0063  
G01 X-1.4380 Y1.9869  
G01 X-1.4403 Y1.9853  
G01 X-1.4425 Y1.9839  
G01 X-1.4445 Y1.9819  
G01 X-1.4463 Y1.9801  
G01 X-1.4675 Y1.9589  
G01 X-1.4694 Y1.9570  
G01 X-1.4714 Y1.9550  
G01 X-1.4728 Y1.9528  
G01 X-1.4744 Y1.9505  
G01 X-1.4857 Y1.9335  
G01 X-1.4889 Y1.9335  
G01 X-1.5085 Y1.9139  
G01 X-1.5085 Y1.8915  
G01 X-1.5203 Y1.8638  
G01 X-1.5807 Y1.7832  
G01 X-1.5850 Y1.7832  
G01 X-1.6045 Y1.7638  
G01 X-1.6045 Y1.7362  
G01 X-1.5850 Y1.7168  
G01 X-1.5575 Y1.7168  
G01 X-1.5380 Y1.7362  
G01 X-1.5380 Y1.7485  
G01 X-1.4755 Y1.8318  
G01 X-1.4751 Y1.8323  
G01 X-1.4739 Y1.8340  
G01 X-1.4726 Y1.8357  
G01 X-1.4724 Y1.8362  
G01 X-1.4720 Y1.8367  
G01 X-1.4712 Y1.8387  
G01 X-1.4703 Y1.8406  
G01 X-1.4701 Y1.8412  
G01 X-1.4581 Y1.8696  
G01 X-1.4415 Y1.8861  
G01 X-1.4415 Y1.9007  
G01 X-1.4286 Y1.9200  
G01 X-1.4075 Y1.9411  
G01 X-1.3700 Y1.9661  
G01 X-1.3696 Y1.9665  
G01 X-1.3207 Y1.9665  
G01 X-1.3142 Y1.9678  
G01 X-1.3081 Y1.9703  
G01 X-1.3026 Y1.9740  
G01 X-1.2980 Y1.9786  
G01 X-1.2943 Y1.9841  
G01 X-1.2918 Y1.9902  
G01 X-1.2905 Y1.9967  
G01 X-1.2905 Y2.0033  
G01 X-1.2918 Y2.0098  
G01 X-1.2943 Y2.0159  
G01 X-1.2980 Y2.0214  
G01 X-1.3026 Y2.0260  
G00 Z0.0500  
G00 X-1.3026 Y1.9260  
G01 Z-0.0035 F10    
G01 X-1.3081 Y1.9297  F20    
G01 X-1.3142 Y1.9322  
G01 X-1.3207 Y1.9335  
G01 X-1.3793 Y1.9335  
G01 X-1.3858 Y1.9322  
G01 X-1.3919 Y1.9297  
G01 X-1.3974 Y1.9260  
G01 X-1.4020 Y1.9214  
G01 X-1.4057 Y1.9159  
G01 X-1.4082 Y1.9098  
G01 X-1.4095 Y1.9033  
G01 X-1.4095 Y1.8967  
G01 X-1.4082 Y1.8902  
G01 X-1.4057 Y1.8841  
G01 X-1.4020 Y1.8786  
G01 X-1.3974 Y1.8740  
G01 X-1.3919 Y1.8703  
G01 X-1.3858 Y1.8678  
G01 X-1.3810 Y1.8668  
G01 X-1.3823 Y1.8534  
G01 X-1.3826 Y1.8513  
G01 X-1.3826 Y1.8507  
G01 X-1.3826 Y1.8500  
G01 X-1.3824 Y1.8480  
G01 X-1.3785 Y1.7689  
G01 X-1.3796 Y1.7678  
G01 X-1.4653 Y1.7335  
G01 X-1.4889 Y1.7335  
G01 X-1.5085 Y1.7139  
G01 X-1.5085 Y1.6861  
G01 X-1.4889 Y1.6665  
G01 X-1.4611 Y1.6665  
G01 X-1.4454 Y1.6822  
G01 X-1.3597 Y1.7165  
G01 X-1.3361 Y1.7165  
G01 X-1.3165 Y1.7361  
G01 X-1.3165 Y1.7639  
G01 X-1.3235 Y1.7709  
G01 X-1.3274 Y1.8493  
G01 X-1.3257 Y1.8665  
G01 X-1.3207 Y1.8665  
G01 X-1.3142 Y1.8678  
G01 X-1.3081 Y1.8703  
G01 X-1.3026 Y1.8740  
G01 X-1.2980 Y1.8786  
G01 X-1.2943 Y1.8841  
G01 X-1.2918 Y1.8902  
G01 X-1.2905 Y1.8967  
G01 X-1.2905 Y1.9033  
G01 X-1.2918 Y1.9098  
G01 X-1.2943 Y1.9159  
G01 X-1.2980 Y1.9214  
G01 X-1.3026 Y1.9260  
G00 Z0.0500  
G00 X-1.4665 Y2.2111  
G01 Z-0.0035 F10    
G01 X-1.4665 Y2.2389  F20    
G01 X-1.4861 Y2.2585  
G01 X-1.5139 Y2.2585  
G01 X-1.5161 Y2.2563  
G01 X-1.5545 Y2.2639  
G01 X-1.5571 Y2.2645  
G01 X-1.5598 Y2.2650  
G01 X-1.5625 Y2.2650  
G01 X-1.5652 Y2.2650  
G01 X-1.6527 Y2.2650  
G01 X-1.6580 Y2.2639  
G01 X-1.6630 Y2.2619  
G01 X-1.6675 Y2.2589  
G01 X-1.6714 Y2.2550  
G01 X-1.6744 Y2.2505  
G01 X-1.6747 Y2.2496  
G01 X-1.6989 Y2.2375  
G01 X-1.7005 Y2.2369  
G01 X-1.7013 Y2.2363  
G01 X-1.7022 Y2.2359  
G01 X-1.7036 Y2.2348  
G01 X-1.7050 Y2.2339  
G01 X-1.7057 Y2.2332  
G01 X-1.7065 Y2.2326  
G01 X-1.7076 Y2.2313  
G01 X-1.7088 Y2.2301  
G01 X-1.7094 Y2.2292  
G01 X-1.7100 Y2.2285  
G01 X-1.7109 Y2.2270  
G01 X-1.7119 Y2.2256  
G01 X-1.7122 Y2.2246  
G01 X-1.7127 Y2.2238  
G01 X-1.7133 Y2.2221  
G01 X-1.7139 Y2.2205  
G01 X-1.7141 Y2.2196  
G01 X-1.7144 Y2.2186  
G01 X-1.7147 Y2.2169  
G01 X-1.7171 Y2.2049  
G01 X-1.7214 Y2.2020  
G01 X-1.7260 Y2.1974  
G01 X-1.7297 Y2.1919  
G01 X-1.7322 Y2.1858  
G01 X-1.7335 Y2.1793  
G01 X-1.7335 Y2.1207  
G01 X-1.7322 Y2.1142  
G01 X-1.7297 Y2.1081  
G01 X-1.7260 Y2.1026  
G01 X-1.7214 Y2.0980  
G01 X-1.7159 Y2.0943  
G01 X-1.7098 Y2.0918  
G01 X-1.7033 Y2.0905  
G01 X-1.6967 Y2.0905  
G01 X-1.6902 Y2.0918  
G01 X-1.6841 Y2.0943  
G01 X-1.6786 Y2.0980  
G01 X-1.6740 Y2.1026  
G01 X-1.6703 Y2.1081  
G01 X-1.6678 Y2.1142  
G01 X-1.6665 Y2.1207  
G01 X-1.6665 Y2.1773  
G01 X-1.6632 Y2.1939  
G01 X-1.6478 Y2.2016  
G01 X-1.6435 Y2.2049  
G01 X-1.6400 Y2.2090  
G01 X-1.6394 Y2.2100  
G01 X-1.5652 Y2.2100  
G01 X-1.5242 Y2.2018  
G01 X-1.5139 Y2.1915  
G01 X-1.4861 Y2.1915  
G01 X-1.4665 Y2.2111  
G00 Z0.0500  
G00 X-1.6415 Y2.3111  
G01 Z-0.0035 F10    
G01 X-1.6415 Y2.3196  F20    
G01 X-1.5786 Y2.3825  
G01 X-1.5756 Y2.3870  
G01 X-1.5736 Y2.3920  
G01 X-1.5725 Y2.3973  
G01 X-1.5725 Y2.4549  
G01 X-1.5703 Y2.4581  
G01 X-1.5678 Y2.4642  
G01 X-1.5665 Y2.4707  
G01 X-1.5665 Y2.5293  
G01 X-1.5678 Y2.5358  
G01 X-1.5703 Y2.5419  
G01 X-1.5740 Y2.5474  
G01 X-1.5786 Y2.5520  
G01 X-1.5841 Y2.5557  
G01 X-1.5902 Y2.5582  
G01 X-1.5967 Y2.5595  
G01 X-1.6033 Y2.5595  
G01 X-1.6098 Y2.5582  
G01 X-1.6159 Y2.5557  
G01 X-1.6214 Y2.5520  
G01 X-1.6260 Y2.5474  
G01 X-1.6297 Y2.5419  
G01 X-1.6322 Y2.5358  
G01 X-1.6335 Y2.5293  
G01 X-1.6335 Y2.4707  
G01 X-1.6322 Y2.4642  
G01 X-1.6297 Y2.4581  
G01 X-1.6275 Y2.4549  
G01 X-1.6275 Y2.4114  
G01 X-1.6804 Y2.3585  
G01 X-1.6889 Y2.3585  
G01 X-1.7085 Y2.3389  
G01 X-1.7085 Y2.3111  
G01 X-1.6889 Y2.2915  
G01 X-1.6611 Y2.2915  
G01 X-1.6415 Y2.3111  
G00 Z0.0500  
G00 X-1.6740 Y2.4526  
G01 Z-0.0035 F10    
G01 X-1.6703 Y2.4581  F20    
G01 X-1.6678 Y2.4642  
G01 X-1.6665 Y2.4707  
G01 X-1.6665 Y2.5293  
G01 X-1.6678 Y2.5358  
G01 X-1.6703 Y2.5419  
G01 X-1.6740 Y2.5474  
G01 X-1.6786 Y2.5520  
G01 X-1.6841 Y2.5557  
G01 X-1.6902 Y2.5582  
G01 X-1.6967 Y2.5595  
G01 X-1.7033 Y2.5595  
G01 X-1.7098 Y2.5582  
G01 X-1.7159 Y2.5557  
G01 X-1.7214 Y2.5520  
G01 X-1.7260 Y2.5474  
G01 X-1.7297 Y2.5419  
G01 X-1.7322 Y2.5358  
G01 X-1.7335 Y2.5293  
G01 X-1.7335 Y2.4707  
G01 X-1.7322 Y2.4642  
G01 X-1.7297 Y2.4581  
G01 X-1.7260 Y2.4526  
G01 X-1.7214 Y2.4480  
G01 X-1.7159 Y2.4443  
G01 X-1.7098 Y2.4418  
G01 X-1.7033 Y2.4405  
G01 X-1.6967 Y2.4405  
G01 X-1.6902 Y2.4418  
G01 X-1.6841 Y2.4443  
G01 X-1.6786 Y2.4480  
G01 X-1.6740 Y2.4526  
G00 Z0.0500  
G00 X-1.7786 Y2.2020  
G01 Z-0.0035 F10    
G01 X-1.7841 Y2.2057  F20    
G01 X-1.7902 Y2.2082  
G01 X-1.7967 Y2.2095  
G01 X-1.8033 Y2.2095  
G01 X-1.8098 Y2.2082  
G01 X-1.8159 Y2.2057  
G01 X-1.8214 Y2.2020  
G01 X-1.8260 Y2.1974  
G01 X-1.8297 Y2.1919  
G01 X-1.8322 Y2.1858  
G01 X-1.8335 Y2.1793  
G01 X-1.8335 Y2.1207  
G01 X-1.8322 Y2.1142  
G01 X-1.8297 Y2.1081  
G01 X-1.8260 Y2.1026  
G01 X-1.8214 Y2.0980  
G01 X-1.8159 Y2.0943  
G01 X-1.8098 Y2.0918  
G01 X-1.8033 Y2.0905  
G01 X-1.7967 Y2.0905  
G01 X-1.7902 Y2.0918  
G01 X-1.7841 Y2.0943  
G01 X-1.7786 Y2.0980  
G01 X-1.7740 Y2.1026  
G01 X-1.7703 Y2.1081  
G01 X-1.7678 Y2.1142  
G01 X-1.7665 Y2.1207  
G01 X-1.7665 Y2.1793  
G01 X-1.7678 Y2.1858  
G01 X-1.7703 Y2.1919  
G01 X-1.7740 Y2.1974  
G01 X-1.7786 Y2.2020  
G00 Z0.0500  
G00 X-1.5945 Y1.2034  
G01 Z-0.0035 F10    
G01 X-1.5945 Y1.1666  F20    
G01 X-1.5684 Y1.1405  
G01 X-1.5316 Y1.1405  
G01 X-1.5055 Y1.1666  
G01 X-1.5055 Y1.2034  
G01 X-1.5316 Y1.2295  
G01 X-1.5684 Y1.2295  
G01 X-1.5945 Y1.2034  
G00 Z0.0500  
G00 X-1.4945 Y1.2034  
G01 Z-0.0035 F10    
G01 X-1.4945 Y1.1666  F20    
G01 X-1.4684 Y1.1405  
G01 X-1.4316 Y1.1405  
G01 X-1.4055 Y1.1666  
G01 X-1.4055 Y1.2034  
G01 X-1.4316 Y1.2295  
G01 X-1.4684 Y1.2295  
G01 X-1.4945 Y1.2034  
G00 Z0.0500  
G00 X-1.4945 Y1.1034  
G01 Z-0.0035 F10    
G01 X-1.4945 Y1.0666  F20    
G01 X-1.4684 Y1.0405  
G01 X-1.4316 Y1.0405  
G01 X-1.4055 Y1.0666  
G01 X-1.4055 Y1.1034  
G01 X-1.4316 Y1.1295  
G01 X-1.4684 Y1.1295  
G01 X-1.4945 Y1.1034  
G00 Z0.0500  
G00 X-1.5055 Y1.1034  
G01 Z-0.0035 F10    
G01 X-1.5316 Y1.1295  F20    
G01 X-1.5684 Y1.1295  
G01 X-1.5945 Y1.1034  
G01 X-1.5945 Y1.0666  
G01 X-1.5684 Y1.0405  
G01 X-1.5316 Y1.0405  
G01 X-1.5055 Y1.0666  
G01 X-1.5055 Y1.1034  
G00 Z0.0500  
G00 X-0.6190 Y2.5483  
G01 Z-0.0035 F10    
G01 X-0.6116 Y2.5429  F20    
G01 X-0.6036 Y2.5388  
G01 X-0.5950 Y2.5360  
G01 X-0.5860 Y2.5346  
G01 X-0.4770 Y2.5346  
G01 X-0.4680 Y2.5360  
G01 X-0.4594 Y2.5388  
G01 X-0.4514 Y2.5429  
G01 X-0.4440 Y2.5483  
G01 X-0.4376 Y2.5547  
G01 X-0.4323 Y2.5620  
G01 X-0.4282 Y2.5701  
G01 X-0.4254 Y2.5787  
G01 X-0.4240 Y2.5876  
G01 X-0.4240 Y2.5967  
G01 X-0.4254 Y2.6056  
G01 X-0.4282 Y2.6142  
G01 X-0.4323 Y2.6223  
G01 X-0.4376 Y2.6296  
G01 X-0.4440 Y2.6360  
G01 X-0.4514 Y2.6413  
G01 X-0.4594 Y2.6454  
G01 X-0.4680 Y2.6482  
G01 X-0.4770 Y2.6496  
G01 X-0.5860 Y2.6496  
G01 X-0.5950 Y2.6482  
G01 X-0.6036 Y2.6454  
G01 X-0.6116 Y2.6413  
G01 X-0.6190 Y2.6360  
G01 X-0.6254 Y2.6296  
G01 X-0.6307 Y2.6223  
G01 X-0.6348 Y2.6142  
G01 X-0.6376 Y2.6056  
G01 X-0.6390 Y2.5967  
G01 X-0.6390 Y2.5876  
G01 X-0.6376 Y2.5787  
G01 X-0.6348 Y2.5701  
G01 X-0.6307 Y2.5620  
G01 X-0.6254 Y2.5547  
G01 X-0.6190 Y2.5483  
G00 Z0.0500  
G00 X-0.6226 Y2.6894  
G01 Z-0.0035 F10    
G01 X-0.6136 Y2.6894  F20    
G01 X-0.6046 Y2.6908  
G01 X-0.5960 Y2.6936  
G01 X-0.5880 Y2.6977  
G01 X-0.5807 Y2.7030  
G01 X-0.5743 Y2.7094  
G01 X-0.5689 Y2.7167  
G01 X-0.5648 Y2.7248  
G01 X-0.5620 Y2.7334  
G01 X-0.5606 Y2.7423  
G01 X-0.5606 Y2.7694  
G01 X-0.4582 Y2.7694  
G01 X-0.2775 Y2.5886  
G01 X-0.2775 Y2.5199  
G01 X-0.2835 Y2.5139  
G01 X-0.2835 Y2.4861  
G01 X-0.2639 Y2.4665  
G01 X-0.2361 Y2.4665  
G01 X-0.2165 Y2.4861  
G01 X-0.2165 Y2.5139  
G01 X-0.2225 Y2.5199  
G01 X-0.2225 Y2.6027  
G01 X-0.2236 Y2.6080  
G01 X-0.2256 Y2.6130  
G01 X-0.2286 Y2.6175  
G01 X-0.4293 Y2.8182  
G01 X-0.4338 Y2.8212  
G01 X-0.4388 Y2.8233  
G01 X-0.4441 Y2.8244  
G01 X-0.5606 Y2.8244  
G01 X-0.5606 Y2.8514  
G01 X-0.5620 Y2.8603  
G01 X-0.5648 Y2.8689  
G01 X-0.5689 Y2.8770  
G01 X-0.5743 Y2.8843  
G01 X-0.5807 Y2.8907  
G01 X-0.5880 Y2.8960  
G01 X-0.5960 Y2.9001  
G01 X-0.6046 Y2.9029  
G01 X-0.6136 Y2.9044  
G01 X-0.6226 Y2.9044  
G01 X-0.6316 Y2.9029  
G01 X-0.6402 Y2.9001  
G01 X-0.6482 Y2.8960  
G01 X-0.6556 Y2.8907  
G01 X-0.6620 Y2.8843  
G01 X-0.6673 Y2.8770  
G01 X-0.6714 Y2.8689  
G01 X-0.6742 Y2.8603  
G01 X-0.6756 Y2.8514  
G01 X-0.6756 Y2.7423  
G01 X-0.6742 Y2.7334  
G01 X-0.6714 Y2.7248  
G01 X-0.6673 Y2.7167  
G01 X-0.6620 Y2.7094  
G01 X-0.6556 Y2.7030  
G01 X-0.6482 Y2.6977  
G01 X-0.6402 Y2.6936  
G01 X-0.6316 Y2.6908  
G01 X-0.6226 Y2.6894  
G00 Z0.0500  
G00 X-0.0779 Y1.0460  
G01 Z-0.0035 F10    
G01 X-0.0777 Y1.0463  F20    
G01 X-0.0775 Y1.0465  
G01 X-0.0761 Y1.0486  
G01 X-0.0746 Y1.0507  
G01 X-0.0745 Y1.0510  
G01 X-0.0743 Y1.0513  
G01 X-0.0733 Y1.0536  
G01 X-0.0723 Y1.0559  
G01 X-0.0722 Y1.0562  
G01 X-0.0721 Y1.0565  
G01 X-0.0716 Y1.0590  
G01 X-0.0711 Y1.0615  
G01 X-0.0711 Y1.0618  
G01 X-0.0710 Y1.0621  
G01 X-0.0710 Y1.0647  
G01 X-0.0709 Y1.0672  
G01 X-0.0710 Y1.0675  
G01 X-0.0710 Y1.1931  
G01 X-0.0709 Y1.1941  
G01 X-0.0710 Y1.1960  
G01 X-0.0710 Y1.1979  
G01 X-0.0712 Y1.1988  
G01 X-0.0713 Y1.1998  
G01 X-0.0717 Y1.2016  
G01 X-0.0721 Y1.2035  
G01 X-0.0725 Y1.2044  
G01 X-0.0727 Y1.2053  
G01 X-0.0736 Y1.2070  
G01 X-0.0743 Y1.2087  
G01 X-0.0748 Y1.2095  
G01 X-0.0753 Y1.2104  
G01 X-0.0764 Y1.2119  
G01 X-0.0775 Y1.2135  
G01 X-0.0782 Y1.2142  
G01 X-0.0788 Y1.2149  
G01 X-0.0802 Y1.2162  
G01 X-0.0815 Y1.2175  
G01 X-0.0823 Y1.2181  
G01 X-0.2710 Y1.3832  
G01 X-0.2710 Y1.4004  
G01 X-0.2690 Y1.4034  
G01 X-0.2663 Y1.4098  
G01 X-0.2650 Y1.4166  
G01 X-0.2650 Y1.4234  
G01 X-0.2663 Y1.4302  
G01 X-0.2690 Y1.4366  
G01 X-0.2728 Y1.4423  
G01 X-0.2777 Y1.4472  
G01 X-0.2834 Y1.4510  
G01 X-0.2898 Y1.4537  
G01 X-0.2966 Y1.4550  
G01 X-0.3034 Y1.4550  
G01 X-0.3102 Y1.4537  
G01 X-0.3166 Y1.4510  
G01 X-0.3223 Y1.4472  
G01 X-0.3272 Y1.4423  
G01 X-0.3310 Y1.4366  
G01 X-0.3337 Y1.4302  
G01 X-0.3350 Y1.4234  
G01 X-0.3350 Y1.4166  
G01 X-0.3337 Y1.4098  
G01 X-0.3310 Y1.4034  
G01 X-0.3290 Y1.4004  
G01 X-0.3290 Y1.3719  
G01 X-0.3291 Y1.3709  
G01 X-0.3290 Y1.3690  
G01 X-0.3290 Y1.3671  
G01 X-0.3288 Y1.3662  
G01 X-0.3287 Y1.3652  
G01 X-0.3283 Y1.3634  
G01 X-0.3279 Y1.3615  
G01 X-0.3275 Y1.3606  
G01 X-0.3273 Y1.3597  
G01 X-0.3264 Y1.3580  
G01 X-0.3257 Y1.3563  
G01 X-0.3252 Y1.3555  
G01 X-0.3247 Y1.3546  
G01 X-0.3236 Y1.3531  
G01 X-0.3225 Y1.3515  
G01 X-0.3218 Y1.3508  
G01 X-0.3212 Y1.3501  
G01 X-0.3198 Y1.3488  
G01 X-0.3185 Y1.3475  
G01 X-0.3177 Y1.3469  
G01 X-0.1290 Y1.1818  
G01 X-0.1290 Y1.0849  
G01 X-0.2929 Y1.0215  
G01 X-1.1686 Y1.0215  
G01 X-1.2210 Y1.0460  
G01 X-1.2210 Y1.0489  
G01 X-1.2040 Y1.0659  
G01 X-1.2040 Y1.1041  
G01 X-1.2210 Y1.1211  
G01 X-1.2210 Y1.1489  
G01 X-1.2040 Y1.1659  
G01 X-1.2040 Y1.2041  
G01 X-1.2309 Y1.2310  
G01 X-1.2691 Y1.2310  
G01 X-1.2960 Y1.2041  
G01 X-1.2960 Y1.1659  
G01 X-1.2790 Y1.1489  
G01 X-1.2790 Y1.1211  
G01 X-1.2960 Y1.1041  
G01 X-1.2960 Y1.0659  
G01 X-1.2790 Y1.0489  
G01 X-1.2790 Y1.0281  
G01 X-1.2791 Y1.0259  
G01 X-1.2790 Y1.0253  
G01 X-1.2790 Y1.0246  
G01 X-1.2786 Y1.0225  
G01 X-1.2782 Y1.0203  
G01 X-1.2780 Y1.0197  
G01 X-1.2779 Y1.0190  
G01 X-1.2770 Y1.0170  
G01 X-1.2763 Y1.0149  
G01 X-1.2759 Y1.0144  
G01 X-1.2757 Y1.0138  
G01 X-1.2745 Y1.0119  
G01 X-1.2733 Y1.0100  
G01 X-1.2729 Y1.0095  
G01 X-1.2725 Y1.0090  
G01 X-1.2710 Y1.0074  
G01 X-1.2695 Y1.0058  
G01 X-1.2689 Y1.0054  
G01 X-1.2685 Y1.0050  
G01 X-1.2666 Y1.0037  
G01 X-1.2649 Y1.0024  
G01 X-1.2643 Y1.0022  
G01 X-1.2637 Y1.0018  
G01 X-1.2617 Y1.0010  
G01 X-1.1893 Y0.9672  
G01 X-1.1887 Y0.9668  
G01 X-1.1867 Y0.9660  
G01 X-1.1847 Y0.9650  
G01 X-1.1841 Y0.9649  
G01 X-1.1835 Y0.9646  
G01 X-1.1813 Y0.9642  
G01 X-1.1791 Y0.9637  
G01 X-1.1785 Y0.9636  
G01 X-1.1779 Y0.9635  
G01 X-1.1756 Y0.9635  
G01 X-1.1734 Y0.9634  
G01 X-1.1728 Y0.9635  
G01 X-0.2878 Y0.9635  
G01 X-0.2853 Y0.9634  
G01 X-0.2850 Y0.9635  
G01 X-0.2846 Y0.9635  
G01 X-0.2822 Y0.9640  
G01 X-0.2797 Y0.9644  
G01 X-0.2794 Y0.9645  
G01 X-0.2790 Y0.9646  
G01 X-0.2767 Y0.9656  
G01 X-0.0919 Y1.0370  
G01 X-0.0915 Y1.0371  
G01 X-0.0892 Y1.0381  
G01 X-0.0869 Y1.0390  
G01 X-0.0866 Y1.0392  
G01 X-0.0863 Y1.0393  
G01 X-0.0842 Y1.0407  
G01 X-0.0821 Y1.0420  
G01 X-0.0818 Y1.0423  
G01 X-0.0815 Y1.0425  
G01 X-0.0797 Y1.0443  
G01 X-0.0779 Y1.0460  
G00 Z0.0500  
G00 X-0.1728 Y1.0977  
G01 Z-0.0035 F10    
G01 X-0.1690 Y1.1034  F20    
G01 X-0.1663 Y1.1098  
G01 X-0.1650 Y1.1166  
G01 X-0.1650 Y1.1234  
G01 X-0.1663 Y1.1302  
G01 X-0.1690 Y1.1366  
G01 X-0.1728 Y1.1423  
G01 X-0.1777 Y1.1472  
G01 X-0.1834 Y1.1510  
G01 X-0.1898 Y1.1537  
G01 X-0.1966 Y1.1550  
G01 X-0.2034 Y1.1550  
G01 X-0.2102 Y1.1537  
G01 X-0.2166 Y1.1510  
G01 X-0.2223 Y1.1472  
G01 X-0.2272 Y1.1423  
G01 X-0.2310 Y1.1366  
G01 X-0.2337 Y1.1302  
G01 X-0.2350 Y1.1234  
G01 X-0.2350 Y1.1166  
G01 X-0.2337 Y1.1098  
G01 X-0.2310 Y1.1034  
G01 X-0.2272 Y1.0977  
G01 X-0.2223 Y1.0928  
G01 X-0.2166 Y1.0890  
G01 X-0.2102 Y1.0863  
G01 X-0.2034 Y1.0850  
G01 X-0.1966 Y1.0850  
G01 X-0.1898 Y1.0863  
G01 X-0.1834 Y1.0890  
G01 X-0.1777 Y1.0928  
G01 X-0.1728 Y1.0977  
G00 Z0.0500  
G00 X-0.2728 Y1.0977  
G01 Z-0.0035 F10    
G01 X-0.2690 Y1.1034  F20    
G01 X-0.2663 Y1.1098  
G01 X-0.2650 Y1.1166  
G01 X-0.2650 Y1.1234  
G01 X-0.2663 Y1.1302  
G01 X-0.2690 Y1.1366  
G01 X-0.2710 Y1.1396  
G01 X-0.2710 Y1.2054  
G01 X-0.2721 Y1.2110  
G01 X-0.2743 Y1.2162  
G01 X-0.2775 Y1.2210  
G01 X-0.3710 Y1.3145  
G01 X-0.3710 Y1.4004  
G01 X-0.3690 Y1.4034  
G01 X-0.3663 Y1.4098  
G01 X-0.3650 Y1.4166  
G01 X-0.3650 Y1.4234  
G01 X-0.3660 Y1.4285  
G01 X-0.1638 Y1.6030  
G01 X-0.1622 Y1.6024  
G01 X-0.1541 Y1.6011  
G01 X-0.1459 Y1.6011  
G01 X-0.1378 Y1.6024  
G01 X-0.1300 Y1.6050  
G01 X-0.1227 Y1.6087  
G01 X-0.1161 Y1.6135  
G01 X-0.1103 Y1.6193  
G01 X-0.1055 Y1.6259  
G01 X-0.1018 Y1.6332  
G01 X-0.0993 Y1.6410  
G01 X-0.0980 Y1.6491  
G01 X-0.0980 Y1.6572  
G01 X-0.0993 Y1.6653  
G01 X-0.1018 Y1.6731  
G01 X-0.1055 Y1.6804  
G01 X-0.1103 Y1.6870  
G01 X-0.1161 Y1.6928  
G01 X-0.1227 Y1.6976  
G01 X-0.1300 Y1.7013  
G01 X-0.1378 Y1.7039  
G01 X-0.1459 Y1.7051  
G01 X-0.1541 Y1.7051  
G01 X-0.1622 Y1.7039  
G01 X-0.1700 Y1.7013  
G01 X-0.1773 Y1.6976  
G01 X-0.1839 Y1.6928  
G01 X-0.1897 Y1.6870  
G01 X-0.1945 Y1.6804  
G01 X-0.1982 Y1.6731  
G01 X-0.2007 Y1.6653  
G01 X-0.2020 Y1.6572  
G01 X-0.2020 Y1.6491  
G01 X-0.2017 Y1.6469  
G01 X-0.4176 Y1.4606  
G01 X-0.4185 Y1.4600  
G01 X-0.4198 Y1.4588  
G01 X-0.4211 Y1.4576  
G01 X-0.4218 Y1.4567  
G01 X-0.4225 Y1.4560  
G01 X-0.4235 Y1.4545  
G01 X-0.4246 Y1.4531  
G01 X-0.4251 Y1.4521  
G01 X-0.4257 Y1.4512  
G01 X-0.4264 Y1.4496  
G01 X-0.4272 Y1.4480  
G01 X-0.4275 Y1.4470  
G01 X-0.4279 Y1.4460  
G01 X-0.4282 Y1.4442  
G01 X-0.4287 Y1.4425  
G01 X-0.4288 Y1.4414  
G01 X-0.4290 Y1.4404  
G01 X-0.4290 Y1.4396  
G01 X-0.4310 Y1.4366  
G01 X-0.4337 Y1.4302  
G01 X-0.4350 Y1.4234  
G01 X-0.4350 Y1.4166  
G01 X-0.4337 Y1.4098  
G01 X-0.4310 Y1.4034  
G01 X-0.4290 Y1.4004  
G01 X-0.4290 Y1.2996  
G01 X-0.4279 Y1.2940  
G01 X-0.4257 Y1.2888  
G01 X-0.4225 Y1.2840  
G01 X-0.4185 Y1.2800  
G01 X-0.3290 Y1.1905  
G01 X-0.3290 Y1.1396  
G01 X-0.3310 Y1.1366  
G01 X-0.3337 Y1.1302  
G01 X-0.3350 Y1.1234  
G01 X-0.3350 Y1.1166  
G01 X-0.3337 Y1.1098  
G01 X-0.3310 Y1.1034  
G01 X-0.3272 Y1.0977  
G01 X-0.3223 Y1.0928  
G01 X-0.3166 Y1.0890  
G01 X-0.3102 Y1.0863  
G01 X-0.3034 Y1.0850  
G01 X-0.2966 Y1.0850  
G01 X-0.2898 Y1.0863  
G01 X-0.2834 Y1.0890  
G01 X-0.2777 Y1.0928  
G01 X-0.2728 Y1.0977  
G00 Z0.0500  
G00 X-0.3728 Y1.0977  
G01 Z-0.0035 F10    
G01 X-0.3690 Y1.1034  F20    
G01 X-0.3663 Y1.1098  
G01 X-0.3650 Y1.1166  
G01 X-0.3650 Y1.1234  
G01 X-0.3663 Y1.1302  
G01 X-0.3690 Y1.1366  
G01 X-0.3728 Y1.1423  
G01 X-0.3777 Y1.1472  
G01 X-0.3790 Y1.1480  
G01 X-0.4021 Y1.2156  
G01 X-0.4024 Y1.2170  
G01 X-0.4030 Y1.2183  
G01 X-0.4035 Y1.2196  
G01 X-0.4042 Y1.2208  
G01 X-0.4048 Y1.2221  
G01 X-0.4056 Y1.2233  
G01 X-0.4064 Y1.2245  
G01 X-0.4073 Y1.2256  
G01 X-0.4081 Y1.2268  
G01 X-0.4092 Y1.2278  
G01 X-0.4101 Y1.2288  
G01 X-0.4113 Y1.2297  
G01 X-0.4123 Y1.2307  
G01 X-0.4135 Y1.2314  
G01 X-0.4147 Y1.2323  
G01 X-0.4160 Y1.2329  
G01 X-0.5691 Y1.3275  
G01 X-0.5234 Y1.7271  
G01 X-0.5150 Y1.7355  
G01 X-0.5150 Y1.7519  
G01 X-0.4460 Y1.8011  
G01 X-0.4440 Y1.8025  
G01 X-0.4437 Y1.8028  
G01 X-0.4433 Y1.8031  
G01 X-0.4417 Y1.8048  
G01 X-0.4400 Y1.8065  
G01 X-0.4397 Y1.8069  
G01 X-0.4394 Y1.8072  
G01 X-0.4381 Y1.8093  
G01 X-0.4368 Y1.8113  
G01 X-0.4366 Y1.8117  
G01 X-0.4364 Y1.8121  
G01 X-0.4355 Y1.8143  
G01 X-0.4346 Y1.8165  
G01 X-0.4345 Y1.8170  
G01 X-0.4344 Y1.8174  
G01 X-0.4340 Y1.8198  
G01 X-0.4335 Y1.8221  
G01 X-0.4335 Y1.8226  
G01 X-0.4334 Y1.8230  
G01 X-0.4335 Y1.8255  
G01 X-0.4335 Y1.9745  
G01 X-0.4334 Y1.9770  
G01 X-0.4335 Y1.9774  
G01 X-0.4335 Y1.9779  
G01 X-0.4340 Y1.9802  
G01 X-0.4344 Y1.9826  
G01 X-0.4345 Y1.9830  
G01 X-0.4346 Y1.9835  
G01 X-0.4355 Y1.9857  
G01 X-0.4364 Y1.9879  
G01 X-0.4366 Y1.9883  
G01 X-0.4368 Y1.9887  
G01 X-0.4381 Y1.9907  
G01 X-0.4394 Y1.9928  
G01 X-0.4397 Y1.9931  
G01 X-0.4400 Y1.9935  
G01 X-0.4417 Y1.9952  
G01 X-0.4433 Y1.9969  
G01 X-0.4437 Y1.9972  
G01 X-0.4440 Y1.9975  
G01 X-0.4460 Y1.9989  
G01 X-0.5210 Y2.0524  
G01 X-0.5210 Y2.0795  
G01 X-0.5150 Y2.0855  
G01 X-0.5150 Y2.1145  
G01 X-0.5230 Y2.1225  
G01 X-0.5509 Y2.4200  
G01 X-0.5509 Y2.4201  
G01 X-0.5511 Y2.4228  
G01 X-0.5514 Y2.4256  
G01 X-0.5514 Y2.4257  
G01 X-0.5514 Y2.4258  
G01 X-0.5522 Y2.4284  
G01 X-0.5530 Y2.4310  
G01 X-0.5531 Y2.4311  
G01 X-0.5531 Y2.4312  
G01 X-0.5544 Y2.4336  
G01 X-0.5557 Y2.4361  
G01 X-0.5558 Y2.4363  
G01 X-0.5576 Y2.4384  
G01 X-0.5593 Y2.4405  
G01 X-0.5595 Y2.4407  
G01 X-0.5616 Y2.4424  
G01 X-0.5637 Y2.4442  
G01 X-0.5639 Y2.4443  
G01 X-0.5663 Y2.4456  
G01 X-0.5687 Y2.4469  
G01 X-0.5688 Y2.4469  
G01 X-0.5689 Y2.4470  
G01 X-0.5716 Y2.4477  
G01 X-0.5742 Y2.4486  
G01 X-0.5743 Y2.4486  
G01 X-0.6525 Y2.4720  
G01 X-0.6576 Y2.4771  
G01 X-0.6714 Y2.5254  
G01 X-0.7009 Y2.8332  
G01 X-0.7009 Y2.8340  
G01 X-0.7012 Y2.8360  
G01 X-0.7014 Y2.8381  
G01 X-0.7016 Y2.8389  
G01 X-0.7017 Y2.8396  
G01 X-0.7025 Y2.8416  
G01 X-0.7031 Y2.8436  
G01 X-0.7034 Y2.8443  
G01 X-0.7037 Y2.8450  
G01 X-0.7048 Y2.8468  
G01 X-0.7057 Y2.8486  
G01 X-0.7062 Y2.8492  
G01 X-0.7066 Y2.8499  
G01 X-0.7080 Y2.8514  
G01 X-0.7093 Y2.8531  
G01 X-0.7099 Y2.8535  
G01 X-0.7605 Y2.9091  
G01 X-0.7650 Y2.9125  
G01 X-0.7650 Y2.9145  
G01 X-0.7855 Y2.9350  
G01 X-0.7876 Y2.9350  
G01 X-0.8561 Y2.9846  
G01 X-0.8565 Y2.9850  
G01 X-0.8584 Y2.9863  
G01 X-0.8603 Y2.9877  
G01 X-0.8608 Y2.9879  
G01 X-0.8613 Y2.9882  
G01 X-0.8634 Y2.9891  
G01 X-0.8655 Y2.9900  
G01 X-0.8660 Y2.9902  
G01 X-0.8665 Y2.9904  
G01 X-0.8688 Y2.9908  
G01 X-0.8711 Y2.9914  
G01 X-0.8716 Y2.9914  
G01 X-0.8721 Y2.9915  
G01 X-0.8745 Y2.9915  
G01 X-0.8768 Y2.9916  
G01 X-0.8773 Y2.9915  
G01 X-1.1361 Y2.9915  
G01 X-1.1375 Y2.9916  
G01 X-1.1389 Y2.9915  
G01 X-1.1404 Y2.9915  
G01 X-1.1418 Y2.9912  
G01 X-1.1432 Y2.9911  
G01 X-1.1446 Y2.9907  
G01 X-1.1460 Y2.9904  
G01 X-1.1473 Y2.9898  
G01 X-1.1487 Y2.9894  
G01 X-1.1499 Y2.9887  
G01 X-1.1512 Y2.9882  
G01 X-1.1524 Y2.9874  
G01 X-1.1537 Y2.9867  
G01 X-1.1548 Y2.9858  
G01 X-1.1560 Y2.9850  
G01 X-1.1570 Y2.9840  
G01 X-1.1581 Y2.9831  
G01 X-1.1590 Y2.9820  
G01 X-1.1600 Y2.9810  
G01 X-1.1608 Y2.9798  
G01 X-1.2588 Y2.8600  
G01 X-1.2645 Y2.8600  
G01 X-1.2850 Y2.8395  
G01 X-1.2850 Y2.8105  
G01 X-1.2645 Y2.7900  
G01 X-1.2355 Y2.7900  
G01 X-1.2150 Y2.8105  
G01 X-1.2150 Y2.8220  
G01 X-1.1238 Y2.9335  
G01 X-1.0160 Y2.9335  
G01 X-1.0244 Y2.9251  
G01 X-1.0863 Y2.9163  
G01 X-1.0888 Y2.9160  
G01 X-1.0891 Y2.9159  
G01 X-1.0894 Y2.9158  
G01 X-1.0918 Y2.9150  
G01 X-1.0942 Y2.9142  
G01 X-1.0945 Y2.9140  
G01 X-1.0948 Y2.9139  
G01 X-1.0970 Y2.9126  
G01 X-1.0992 Y2.9114  
G01 X-1.0994 Y2.9112  
G01 X-1.0997 Y2.9110  
G01 X-1.1016 Y2.9093  
G01 X-1.1035 Y2.9077  
G01 X-1.1037 Y2.9074  
G01 X-1.1040 Y2.9072  
G01 X-1.1055 Y2.9052  
G01 X-1.1071 Y2.9032  
G01 X-1.1072 Y2.9029  
G01 X-1.1074 Y2.9026  
G01 X-1.1085 Y2.9003  
G01 X-1.1828 Y2.7540  
G01 X-1.2960 Y2.7540  
G01 X-1.2960 Y2.9321  
G01 X-1.1682 Y2.9960  
G01 X-0.5688 Y2.9960  
G01 X-0.1574 Y2.8070  
G01 X-0.1574 Y2.7422  
G01 X-0.1560 Y2.7330  
G01 X-0.1531 Y2.7242  
G01 X-0.1489 Y2.7159  
G01 X-0.1434 Y2.7084  
G01 X-0.1369 Y2.7018  
G01 X-0.1363 Y2.7015  
G01 X-0.1761 Y2.0919  
G01 X-0.1773 Y2.0913  
G01 X-0.1839 Y2.0865  
G01 X-0.1897 Y2.0807  
G01 X-0.1945 Y2.0741  
G01 X-0.1982 Y2.0668  
G01 X-0.2007 Y2.0590  
G01 X-0.2020 Y2.0509  
G01 X-0.2020 Y2.0428  
G01 X-0.2007 Y2.0347  
G01 X-0.1982 Y2.0269  
G01 X-0.1945 Y2.0196  
G01 X-0.1897 Y2.0130  
G01 X-0.1839 Y2.0072  
G01 X-0.1773 Y2.0024  
G01 X-0.1700 Y1.9987  
G01 X-0.1622 Y1.9961  
G01 X-0.1541 Y1.9949  
G01 X-0.1459 Y1.9949  
G01 X-0.1378 Y1.9961  
G01 X-0.1300 Y1.9987  
G01 X-0.1227 Y2.0024  
G01 X-0.1161 Y2.0072  
G01 X-0.1103 Y2.0130  
G01 X-0.1055 Y2.0196  
G01 X-0.1018 Y2.0269  
G01 X-0.0993 Y2.0347  
G01 X-0.0980 Y2.0428  
G01 X-0.0980 Y2.0509  
G01 X-0.0993 Y2.0590  
G01 X-0.1018 Y2.0668  
G01 X-0.1055 Y2.0741  
G01 X-0.1103 Y2.0807  
G01 X-0.1161 Y2.0865  
G01 X-0.1182 Y2.0881  
G01 X-0.0789 Y2.6912  
G01 X-0.0758 Y2.6922  
G01 X-0.0675 Y2.6964  
G01 X-0.0600 Y2.7018  
G01 X-0.0534 Y2.7084  
G01 X-0.0480 Y2.7159  
G01 X-0.0437 Y2.7242  
G01 X-0.0409 Y2.7330  
G01 X-0.0394 Y2.7422  
G01 X-0.0394 Y2.8515  
G01 X-0.0409 Y2.8607  
G01 X-0.0437 Y2.8695  
G01 X-0.0480 Y2.8778  
G01 X-0.0534 Y2.8853  
G01 X-0.0600 Y2.8919  
G01 X-0.0675 Y2.8973  
G01 X-0.0758 Y2.9015  
G01 X-0.0846 Y2.9044  
G01 X-0.0938 Y2.9059  
G01 X-0.1031 Y2.9059  
G01 X-0.1122 Y2.9044  
G01 X-0.1211 Y2.9015  
G01 X-0.1293 Y2.8973  
G01 X-0.1369 Y2.8919  
G01 X-0.1434 Y2.8853  
G01 X-0.1489 Y2.8778  
G01 X-0.1531 Y2.8695  
G01 X-0.1533 Y2.8689  
G01 X-0.5483 Y3.0504  
G01 X-0.5488 Y3.0507  
G01 X-0.5509 Y3.0516  
G01 X-0.5530 Y3.0525  
G01 X-0.5535 Y3.0527  
G01 X-0.5540 Y3.0529  
G01 X-0.5563 Y3.0533  
G01 X-0.5585 Y3.0539  
G01 X-0.5591 Y3.0539  
G01 X-0.5596 Y3.0540  
G01 X-0.5619 Y3.0540  
G01 X-0.5643 Y3.0541  
G01 X-0.5648 Y3.0540  
G01 X-1.1732 Y3.0540  
G01 X-1.1742 Y3.0541  
G01 X-1.1760 Y3.0540  
G01 X-1.1779 Y3.0540  
G01 X-1.1789 Y3.0538  
G01 X-1.1799 Y3.0537  
G01 X-1.1817 Y3.0532  
G01 X-1.1835 Y3.0529  
G01 X-1.1844 Y3.0525  
G01 X-1.1854 Y3.0522  
G01 X-1.1870 Y3.0514  
G01 X-1.1887 Y3.0507  
G01 X-1.1896 Y3.0501  
G01 X-1.3370 Y2.9764  
G01 X-1.3387 Y2.9757  
G01 X-1.3396 Y2.9751  
G01 X-1.3405 Y2.9747  
G01 X-1.3420 Y2.9735  
G01 X-1.3435 Y2.9725  
G01 X-1.3442 Y2.9718  
G01 X-1.3450 Y2.9712  
G01 X-1.3462 Y2.9698  
G01 X-1.3475 Y2.9685  
G01 X-1.3481 Y2.9676  
G01 X-1.3488 Y2.9668  
G01 X-1.3497 Y2.9653  
G01 X-1.3507 Y2.9637  
G01 X-1.3511 Y2.9628  
G01 X-1.3516 Y2.9619  
G01 X-1.3522 Y2.9601  
G01 X-1.3529 Y2.9585  
G01 X-1.3531 Y2.9574  
G01 X-1.3534 Y2.9565  
G01 X-1.3536 Y2.9546  
G01 X-1.3540 Y2.9529  
G01 X-1.3540 Y2.9518  
G01 X-1.3541 Y2.9508  
G01 X-1.3540 Y2.9490  
G01 X-1.3540 Y2.7221  
G01 X-1.3529 Y2.7165  
G01 X-1.3507 Y2.7113  
G01 X-1.3475 Y2.7065  
G01 X-1.3435 Y2.7025  
G01 X-1.3387 Y2.6993  
G01 X-1.3335 Y2.6971  
G01 X-1.3279 Y2.6960  
G01 X-1.1940 Y2.6960  
G01 X-1.1940 Y1.9523  
G01 X-1.1941 Y1.9517  
G01 X-1.1940 Y1.9494  
G01 X-1.1940 Y1.9471  
G01 X-1.1939 Y1.9465  
G01 X-1.1939 Y1.9459  
G01 X-1.1933 Y1.9438  
G01 X-1.1929 Y1.9415  
G01 X-1.1927 Y1.9410  
G01 X-1.1925 Y1.9404  
G01 X-1.1916 Y1.9383  
G01 X-1.1907 Y1.9363  
G01 X-1.1904 Y1.9358  
G01 X-1.1901 Y1.9352  
G01 X-1.1888 Y1.9334  
G01 X-1.1875 Y1.9315  
G01 X-1.1871 Y1.9311  
G01 X-1.1867 Y1.9306  
G01 X-1.1851 Y1.9291  
G01 X-1.1835 Y1.9275  
G01 X-1.1830 Y1.9271  
G01 X-1.1825 Y1.9267  
G01 X-1.1806 Y1.9256  
G01 X-1.1787 Y1.9243  
G01 X-1.1782 Y1.9241  
G01 X-1.1241 Y1.8911  
G01 X-1.2568 Y1.8532  
G01 X-1.2585 Y1.8529  
G01 X-1.2596 Y1.8524  
G01 X-1.2607 Y1.8521  
G01 X-1.2622 Y1.8513  
G01 X-1.2637 Y1.8507  
G01 X-1.2647 Y1.8500  
G01 X-1.2658 Y1.8495  
G01 X-1.2671 Y1.8485  
G01 X-1.2685 Y1.8475  
G01 X-1.2693 Y1.8467  
G01 X-1.2703 Y1.8459  
G01 X-1.2713 Y1.8447  
G01 X-1.2725 Y1.8435  
G01 X-1.2732 Y1.8425  
G01 X-1.2740 Y1.8416  
G01 X-1.2748 Y1.8401  
G01 X-1.2757 Y1.8387  
G01 X-1.2762 Y1.8376  
G01 X-1.2767 Y1.8366  
G01 X-1.2772 Y1.8350  
G01 X-1.2779 Y1.8335  
G01 X-1.2781 Y1.8323  
G01 X-1.2785 Y1.8311  
G01 X-1.2787 Y1.8295  
G01 X-1.2790 Y1.8279  
G01 X-1.2790 Y1.8267  
G01 X-1.2791 Y1.8255  
G01 X-1.2790 Y1.8238  
G01 X-1.2790 Y1.6010  
G01 X-1.2791 Y1.5992  
G01 X-1.2790 Y1.5982  
G01 X-1.2790 Y1.5971  
G01 X-1.2786 Y1.5954  
G01 X-1.2741 Y1.5592  
G01 X-1.2738 Y1.5564  
G01 X-1.2734 Y1.5536  
G01 X-1.2725 Y1.5509  
G01 X-1.2716 Y1.5481  
G01 X-1.2702 Y1.5440  
G01 X-1.5167 Y1.5440  
G01 X-1.6944 Y1.6542  
G01 X-1.6986 Y1.7310  
G01 X-1.6940 Y1.7356  
G01 X-1.6940 Y1.7644  
G01 X-1.7032 Y1.7736  
G01 X-1.7473 Y1.8837  
G01 X-1.7474 Y1.8844  
G01 X-1.7483 Y1.8864  
G01 X-1.7491 Y1.8884  
G01 X-1.7495 Y1.8890  
G01 X-1.7498 Y1.8896  
G01 X-1.7510 Y1.8914  
G01 X-1.7523 Y1.8932  
G01 X-1.7527 Y1.8937  
G01 X-1.7940 Y1.9513  
G01 X-1.7940 Y1.9644  
G01 X-1.8049 Y1.9753  
G01 X-1.8090 Y1.9929  
G01 X-1.8092 Y1.9946  
G01 X-1.8096 Y1.9957  
G01 X-1.8099 Y1.9969  
G01 X-1.8106 Y1.9984  
G01 X-1.8112 Y2.0000  
G01 X-1.8118 Y2.0010  
G01 X-1.8123 Y2.0021  
G01 X-1.8132 Y2.0034  
G01 X-1.8460 Y2.0580  
G01 X-1.8460 Y2.4630  
G01 X-1.6650 Y2.6440  
G01 X-1.6618 Y2.6488  
G01 X-1.6596 Y2.6540  
G01 X-1.6585 Y2.6596  
G01 X-1.6585 Y2.6711  
G01 X-1.6440 Y2.6856  
G01 X-1.6440 Y2.7144  
G01 X-1.6643 Y2.7347  
G01 X-1.6931 Y2.7347  
G01 X-1.7041 Y2.7238  
G01 X-1.7060 Y2.7225  
G01 X-1.7100 Y2.7185  
G01 X-1.7113 Y2.7166  
G01 X-1.7135 Y2.7144  
G01 X-1.7135 Y2.7130  
G01 X-1.7154 Y2.7085  
G01 X-1.7165 Y2.7029  
G01 X-1.7165 Y2.6745  
G01 X-1.8935 Y2.4975  
G01 X-1.8975 Y2.4935  
G01 X-1.9007 Y2.4887  
G01 X-1.9029 Y2.4835  
G01 X-1.9040 Y2.4779  
G01 X-1.9040 Y2.0507  
G01 X-1.9041 Y2.0486  
G01 X-1.9040 Y2.0479  
G01 X-1.9040 Y2.0471  
G01 X-1.9036 Y2.0450  
G01 X-1.9033 Y2.0429  
G01 X-1.9030 Y2.0422  
G01 X-1.9029 Y2.0415  
G01 X-1.9021 Y2.0396  
G01 X-1.9013 Y2.0375  
G01 X-1.9010 Y2.0369  
G01 X-1.9007 Y2.0363  
G01 X-1.8995 Y2.0345  
G01 X-1.8647 Y1.9765  
G01 X-1.8622 Y1.9657  
G01 X-1.8635 Y1.9644  
G01 X-1.8635 Y1.9356  
G01 X-1.8431 Y1.9153  
G01 X-1.8395 Y1.9153  
G01 X-1.8006 Y1.8610  
G01 X-1.7624 Y1.7655  
G01 X-1.7635 Y1.7644  
G01 X-1.7635 Y1.7356  
G01 X-1.7566 Y1.7287  
G01 X-1.7515 Y1.6362  
G01 X-1.7514 Y1.6337  
G01 X-1.7513 Y1.6334  
G01 X-1.7513 Y1.6330  
G01 X-1.7507 Y1.6306  
G01 X-1.7501 Y1.6281  
G01 X-1.7500 Y1.6278  
G01 X-1.7499 Y1.6275  
G01 X-1.7488 Y1.6252  
G01 X-1.7477 Y1.6229  
G01 X-1.7475 Y1.6226  
G01 X-1.7474 Y1.6224  
G01 X-1.7459 Y1.6203  
G01 X-1.7444 Y1.6183  
G01 X-1.7442 Y1.6180  
G01 X-1.7440 Y1.6178  
G01 X-1.7421 Y1.6161  
G01 X-1.7402 Y1.6144  
G01 X-1.7399 Y1.6142  
G01 X-1.7397 Y1.6140  
G01 X-1.7375 Y1.6127  
G01 X-1.5407 Y1.4906  
G01 X-1.5387 Y1.4893  
G01 X-1.5383 Y1.4891  
G01 X-1.5379 Y1.4889  
G01 X-1.5356 Y1.4880  
G01 X-1.5335 Y1.4871  
G01 X-1.5330 Y1.4870  
G01 X-1.5325 Y1.4868  
G01 X-1.5302 Y1.4865  
G01 X-1.5279 Y1.4860  
G01 X-1.5274 Y1.4860  
G01 X-1.5269 Y1.4859  
G01 X-1.5245 Y1.4860  
G01 X-1.2427 Y1.4860  
G01 X-1.2216 Y1.4632  
G01 X-1.2201 Y1.4614  
G01 X-1.2197 Y1.4611  
G01 X-1.2194 Y1.4607  
G01 X-1.2174 Y1.4593  
G01 X-1.1510 Y1.4077  
G01 X-1.1496 Y1.4064  
G01 X-1.1488 Y1.4059  
G01 X-1.1480 Y1.4054  
G01 X-1.1463 Y1.4045  
G01 X-1.1447 Y1.4035  
G01 X-1.1438 Y1.4032  
G01 X-1.1429 Y1.4028  
G01 X-1.1411 Y1.4023  
G01 X-1.1393 Y1.4017  
G01 X-1.1384 Y1.4015  
G01 X-1.1374 Y1.4013  
G01 X-1.1355 Y1.4011  
G01 X-1.0949 Y1.3955  
G01 X-1.0774 Y1.3780  
G01 X-1.0426 Y1.3780  
G01 X-1.0296 Y1.3910  
G01 X-1.0207 Y1.3910  
G01 X-1.1501 Y1.2310  
G01 X-1.1691 Y1.2310  
G01 X-1.1960 Y1.2041  
G01 X-1.1960 Y1.1659  
G01 X-1.1790 Y1.1489  
G01 X-1.1790 Y1.1211  
G01 X-1.1960 Y1.1041  
G01 X-1.1960 Y1.0659  
G01 X-1.1691 Y1.0390  
G01 X-1.1309 Y1.0390  
G01 X-1.1189 Y1.0510  
G01 X-1.0811 Y1.0510  
G01 X-1.0691 Y1.0390  
G01 X-1.0309 Y1.0390  
G01 X-1.0189 Y1.0510  
G01 X-0.9811 Y1.0510  
G01 X-0.9691 Y1.0390  
G01 X-0.9309 Y1.0390  
G01 X-0.9040 Y1.0659  
G01 X-0.9040 Y1.1041  
G01 X-0.9210 Y1.1211  
G01 X-0.9210 Y1.1489  
G01 X-0.9040 Y1.1659  
G01 X-0.9040 Y1.2041  
G01 X-0.9309 Y1.2310  
G01 X-0.9691 Y1.2310  
G01 X-0.9861 Y1.2140  
G01 X-1.0139 Y1.2140  
G01 X-1.0309 Y1.2310  
G01 X-1.0691 Y1.2310  
G01 X-1.0861 Y1.2140  
G01 X-1.0893 Y1.2140  
G01 X-0.9567 Y1.3780  
G01 X-0.9426 Y1.3780  
G01 X-0.9296 Y1.3910  
G01 X-0.8904 Y1.3910  
G01 X-0.8774 Y1.3780  
G01 X-0.8426 Y1.3780  
G01 X-0.8296 Y1.3910  
G01 X-0.7904 Y1.3910  
G01 X-0.7774 Y1.3780  
G01 X-0.7426 Y1.3780  
G01 X-0.7180 Y1.4026  
G01 X-0.7180 Y1.4374  
G01 X-0.7426 Y1.4620  
G01 X-0.7774 Y1.4620  
G01 X-0.7904 Y1.4490  
G01 X-0.8296 Y1.4490  
G01 X-0.8426 Y1.4620  
G01 X-0.8774 Y1.4620  
G01 X-0.8904 Y1.4490  
G01 X-0.9296 Y1.4490  
G01 X-0.9426 Y1.4620  
G01 X-0.9774 Y1.4620  
G01 X-0.9904 Y1.4490  
G01 X-1.0296 Y1.4490  
G01 X-1.0426 Y1.4620  
G01 X-1.0774 Y1.4620  
G01 X-1.0865 Y1.4529  
G01 X-1.1208 Y1.4577  
G01 X-1.1803 Y1.5039  
G01 X-1.2045 Y1.5301  
G01 X-1.2166 Y1.5664  
G01 X-1.2210 Y1.6018  
G01 X-1.2210 Y1.8031  
G01 X-1.0709 Y1.8460  
G01 X-0.9489 Y1.8460  
G01 X-0.9394 Y1.8365  
G01 X-0.9106 Y1.8365  
G01 X-0.8903 Y1.8569  
G01 X-0.8903 Y1.8857  
G01 X-0.9106 Y1.9060  
G01 X-0.9394 Y1.9060  
G01 X-0.9414 Y1.9040  
G01 X-0.9891 Y1.9040  
G01 X-0.9903 Y1.9102  
G01 X-0.9930 Y1.9166  
G01 X-0.9968 Y1.9223  
G01 X-1.0017 Y1.9272  
G01 X-1.0074 Y1.9310  
G01 X-1.0138 Y1.9337  
G01 X-1.0206 Y1.9350  
G01 X-1.0794 Y1.9350  
G01 X-1.0834 Y1.9342  
G01 X-1.1360 Y1.9663  
G01 X-1.1360 Y2.7181  
G01 X-1.0635 Y2.8609  
G01 X-1.0171 Y2.8676  
G01 X-1.0145 Y2.8650  
G01 X-0.9855 Y2.8650  
G01 X-0.9823 Y2.8682  
G01 X-0.9415 Y2.8623  
G01 X-0.8365 Y2.7831  
G01 X-0.8365 Y2.6243  
G01 X-0.8366 Y2.6232  
G01 X-0.8365 Y2.6214  
G01 X-0.8365 Y2.6196  
G01 X-0.8363 Y2.6186  
G01 X-0.8362 Y2.6175  
G01 X-0.8357 Y2.6158  
G01 X-0.8355 Y2.6149  
G01 X-0.8360 Y2.6144  
G01 X-0.8360 Y2.5856  
G01 X-0.8262 Y2.5758  
G01 X-0.8040 Y2.4573  
G01 X-0.8040 Y2.2507  
G01 X-0.8041 Y2.2485  
G01 X-0.8040 Y2.2478  
G01 X-0.8040 Y2.2471  
G01 X-0.8036 Y2.2450  
G01 X-0.8032 Y2.2422  
G01 X-0.8060 Y2.2394  
G01 X-0.8060 Y2.2106  
G01 X-0.7857 Y2.1903  
G01 X-0.7569 Y2.1903  
G01 X-0.7365 Y2.2106  
G01 X-0.7365 Y2.2394  
G01 X-0.7454 Y2.2483  
G01 X-0.7460 Y2.2522  
G01 X-0.7460 Y2.4598  
G01 X-0.7460 Y2.4625  
G01 X-0.7460 Y2.4627  
G01 X-0.7460 Y2.4629  
G01 X-0.7465 Y2.4655  
G01 X-0.7687 Y2.5835  
G01 X-0.7665 Y2.5856  
G01 X-0.7665 Y2.6144  
G01 X-0.7785 Y2.6264  
G01 X-0.7785 Y2.7967  
G01 X-0.7784 Y2.7987  
G01 X-0.7785 Y2.7995  
G01 X-0.7785 Y2.8004  
G01 X-0.7789 Y2.8023  
G01 X-0.7792 Y2.8043  
G01 X-0.7795 Y2.8051  
G01 X-0.7796 Y2.8060  
G01 X-0.7804 Y2.8078  
G01 X-0.7811 Y2.8097  
G01 X-0.7815 Y2.8105  
G01 X-0.7818 Y2.8112  
G01 X-0.7829 Y2.8129  
G01 X-0.7839 Y2.8147  
G01 X-0.7845 Y2.8153  
G01 X-0.7850 Y2.8160  
G01 X-0.7864 Y2.8174  
G01 X-0.7877 Y2.8189  
G01 X-0.7884 Y2.8194  
G01 X-0.7890 Y2.8200  
G01 X-0.7907 Y2.8211  
G01 X-0.9115 Y2.9124  
G01 X-0.9128 Y2.9135  
G01 X-0.9138 Y2.9141  
G01 X-0.9148 Y2.9149  
G01 X-0.9163 Y2.9156  
G01 X-0.9177 Y2.9164  
G01 X-0.9188 Y2.9168  
G01 X-0.9199 Y2.9174  
G01 X-0.9215 Y2.9178  
G01 X-0.9231 Y2.9183  
G01 X-0.9243 Y2.9185  
G01 X-0.9255 Y2.9188  
G01 X-0.9271 Y2.9189  
G01 X-0.9764 Y2.9259  
G01 X-0.9840 Y2.9335  
G01 X-0.8844 Y2.9335  
G01 X-0.8350 Y2.8977  
G01 X-0.8350 Y2.8855  
G01 X-0.8145 Y2.8650  
G01 X-0.7987 Y2.8650  
G01 X-0.7579 Y2.8201  
G01 X-0.7289 Y2.5174  
G01 X-0.7287 Y2.5148  
G01 X-0.7286 Y2.5146  
G01 X-0.7286 Y2.5144  
G01 X-0.7278 Y2.5118  
G01 X-0.7145 Y2.4650  
G01 X-0.7150 Y2.4645  
G01 X-0.7150 Y2.4355  
G01 X-0.6945 Y2.4150  
G01 X-0.6655 Y2.4150  
G01 X-0.6652 Y2.4153  
G01 X-0.6070 Y2.3978  
G01 X-0.5809 Y2.1186  
G01 X-0.5850 Y2.1145  
G01 X-0.5850 Y2.0855  
G01 X-0.5790 Y2.0795  
G01 X-0.5790 Y2.0380  
G01 X-0.5791 Y2.0355  
G01 X-0.5790 Y2.0351  
G01 X-0.5790 Y2.0346  
G01 X-0.5785 Y2.0323  
G01 X-0.5781 Y2.0299  
G01 X-0.5780 Y2.0295  
G01 X-0.5779 Y2.0290  
G01 X-0.5770 Y2.0268  
G01 X-0.5761 Y2.0246  
G01 X-0.5759 Y2.0242  
G01 X-0.5757 Y2.0238  
G01 X-0.5744 Y2.0218  
G01 X-0.5731 Y2.0197  
G01 X-0.5728 Y2.0194  
G01 X-0.5725 Y2.0190  
G01 X-0.5708 Y2.0173  
G01 X-0.5692 Y2.0156  
G01 X-0.5688 Y2.0153  
G01 X-0.5685 Y2.0150  
G01 X-0.5665 Y2.0136  
G01 X-0.4915 Y1.9601  
G01 X-0.4915 Y1.8399  
G01 X-0.5692 Y1.7844  
G01 X-0.5731 Y1.7803  
G01 X-0.5761 Y1.7754  
G01 X-0.5774 Y1.7721  
G01 X-0.5850 Y1.7645  
G01 X-0.5850 Y1.7355  
G01 X-0.5813 Y1.7318  
G01 X-0.6153 Y1.4338  
G01 X-0.6378 Y1.4925  
G01 X-0.6386 Y1.4948  
G01 X-0.6388 Y1.4952  
G01 X-0.6389 Y1.4955  
G01 X-0.6402 Y1.4976  
G01 X-0.6415 Y1.4997  
G01 X-0.6418 Y1.5000  
G01 X-0.6420 Y1.5004  
G01 X-0.6437 Y1.5022  
G01 X-0.6453 Y1.5040  
G01 X-0.6456 Y1.5042  
G01 X-0.6459 Y1.5045  
G01 X-0.6479 Y1.5059  
G01 X-0.6960 Y1.5420  
G01 X-0.6965 Y1.5425  
G01 X-0.6982 Y1.5437  
G01 X-0.6999 Y1.5449  
G01 X-0.7006 Y1.5453  
G01 X-0.7013 Y1.5457  
G01 X-0.7032 Y1.5465  
G01 X-0.7050 Y1.5474  
G01 X-0.7058 Y1.5476  
G01 X-0.7065 Y1.5479  
G01 X-0.7086 Y1.5483  
G01 X-0.7106 Y1.5488  
G01 X-0.7114 Y1.5488  
G01 X-0.7121 Y1.5490  
G01 X-0.7142 Y1.5490  
G01 X-0.7163 Y1.5491  
G01 X-0.7171 Y1.5490  
G01 X-0.7296 Y1.5490  
G01 X-0.7426 Y1.5620  
G01 X-0.7774 Y1.5620  
G01 X-0.7904 Y1.5490  
G01 X-0.8296 Y1.5490  
G01 X-0.8426 Y1.5620  
G01 X-0.8774 Y1.5620  
G01 X-0.8904 Y1.5490  
G01 X-0.9296 Y1.5490  
G01 X-0.9426 Y1.5620  
G01 X-0.9774 Y1.5620  
G01 X-0.9904 Y1.5490  
G01 X-1.0296 Y1.5490  
G01 X-1.0426 Y1.5620  
G01 X-1.0585 Y1.5620  
G01 X-1.0764 Y1.5821  
G01 X-1.1150 Y1.6477  
G01 X-1.1150 Y1.6645  
G01 X-1.1210 Y1.6705  
G01 X-1.1210 Y1.7295  
G01 X-1.1150 Y1.7355  
G01 X-1.1150 Y1.7645  
G01 X-1.1355 Y1.7850  
G01 X-1.1645 Y1.7850  
G01 X-1.1850 Y1.7645  
G01 X-1.1850 Y1.7355  
G01 X-1.1790 Y1.7295  
G01 X-1.1790 Y1.6705  
G01 X-1.1850 Y1.6645  
G01 X-1.1850 Y1.6355  
G01 X-1.1645 Y1.6150  
G01 X-1.1631 Y1.6150  
G01 X-1.1250 Y1.5503  
G01 X-1.1236 Y1.5479  
G01 X-1.1216 Y1.5457  
G01 X-1.1020 Y1.5236  
G01 X-1.1020 Y1.5026  
G01 X-1.0774 Y1.4780  
G01 X-1.0426 Y1.4780  
G01 X-1.0296 Y1.4910  
G01 X-0.9904 Y1.4910  
G01 X-0.9774 Y1.4780  
G01 X-0.9426 Y1.4780  
G01 X-0.9296 Y1.4910  
G01 X-0.8904 Y1.4910  
G01 X-0.8774 Y1.4780  
G01 X-0.8426 Y1.4780  
G01 X-0.8296 Y1.4910  
G01 X-0.7904 Y1.4910  
G01 X-0.7774 Y1.4780  
G01 X-0.7426 Y1.4780  
G01 X-0.7296 Y1.4910  
G01 X-0.7247 Y1.4910  
G01 X-0.6891 Y1.4643  
G01 X-0.6278 Y1.3039  
G01 X-0.6276 Y1.3030  
G01 X-0.6273 Y1.3024  
G01 X-0.6271 Y1.3018  
G01 X-0.6265 Y1.3007  
G01 X-0.6261 Y1.2995  
G01 X-0.6256 Y1.2987  
G01 X-0.6252 Y1.2979  
G01 X-0.6248 Y1.2973  
G01 X-0.6245 Y1.2967  
G01 X-0.6237 Y1.2957  
G01 X-0.6230 Y1.2946  
G01 X-0.6224 Y1.2940  
G01 X-0.6219 Y1.2932  
G01 X-0.6213 Y1.2928  
G01 X-0.6209 Y1.2922  
G01 X-0.6200 Y1.2914  
G01 X-0.6191 Y1.2905  
G01 X-0.6183 Y1.2900  
G01 X-0.6177 Y1.2893  
G01 X-0.6171 Y1.2890  
G01 X-0.6166 Y1.2885  
G01 X-0.6155 Y1.2879  
G01 X-0.6144 Y1.2872  
G01 X-0.6136 Y1.2868  
G01 X-0.4541 Y1.1883  
G01 X-0.4338 Y1.1293  
G01 X-0.4350 Y1.1234  
G01 X-0.4350 Y1.1166  
G01 X-0.4337 Y1.1098  
G01 X-0.4310 Y1.1034  
G01 X-0.4272 Y1.0977  
G01 X-0.4223 Y1.0928  
G01 X-0.4166 Y1.0890  
G01 X-0.4102 Y1.0863  
G01 X-0.4034 Y1.0850  
G01 X-0.3966 Y1.0850  
G01 X-0.3898 Y1.0863  
G01 X-0.3834 Y1.0890  
G01 X-0.3777 Y1.0928  
G01 X-0.3728 Y1.0977  
G00 Z0.0500  
G00 X-0.4728 Y1.0977  
G01 Z-0.0035 F10    
G01 X-0.4690 Y1.1034  F20    
G01 X-0.4663 Y1.1098  
G01 X-0.4650 Y1.1166  
G01 X-0.4650 Y1.1234  
G01 X-0.4663 Y1.1302  
G01 X-0.4690 Y1.1366  
G01 X-0.4728 Y1.1423  
G01 X-0.4777 Y1.1472  
G01 X-0.4834 Y1.1510  
G01 X-0.4898 Y1.1537  
G01 X-0.4966 Y1.1550  
G01 X-0.5034 Y1.1550  
G01 X-0.5089 Y1.1539  
G01 X-0.6592 Y1.2070  
G01 X-0.6608 Y1.2076  
G01 X-0.6619 Y1.2079  
G01 X-0.6630 Y1.2083  
G01 X-0.6647 Y1.2085  
G01 X-0.6663 Y1.2089  
G01 X-0.6675 Y1.2089  
G01 X-0.6687 Y1.2091  
G01 X-0.6704 Y1.2090  
G01 X-0.8129 Y1.2130  
G01 X-0.8309 Y1.2310  
G01 X-0.8691 Y1.2310  
G01 X-0.8960 Y1.2041  
G01 X-0.8960 Y1.1659  
G01 X-0.8790 Y1.1489  
G01 X-0.8790 Y1.1211  
G01 X-0.8960 Y1.1041  
G01 X-0.8960 Y1.0659  
G01 X-0.8691 Y1.0390  
G01 X-0.8309 Y1.0390  
G01 X-0.8040 Y1.0659  
G01 X-0.8040 Y1.1041  
G01 X-0.8210 Y1.1211  
G01 X-0.8210 Y1.1489  
G01 X-0.8149 Y1.1550  
G01 X-0.6754 Y1.1511  
G01 X-0.5282 Y1.0992  
G01 X-0.5272 Y1.0977  
G01 X-0.5223 Y1.0928  
G01 X-0.5166 Y1.0890  
G01 X-0.5102 Y1.0863  
G01 X-0.5034 Y1.0850  
G01 X-0.4966 Y1.0850  
G01 X-0.4898 Y1.0863  
G01 X-0.4834 Y1.0890  
G01 X-0.4777 Y1.0928  
G01 X-0.4728 Y1.0977  
G00 Z0.0500  
G00 X-0.4728 Y1.3977  
G01 Z-0.0035 F10    
G01 X-0.4690 Y1.4034  F20    
G01 X-0.4663 Y1.4098  
G01 X-0.4650 Y1.4166  
G01 X-0.4650 Y1.4234  
G01 X-0.4663 Y1.4302  
G01 X-0.4690 Y1.4366  
G01 X-0.4728 Y1.4423  
G01 X-0.4777 Y1.4472  
G01 X-0.4834 Y1.4510  
G01 X-0.4898 Y1.4537  
G01 X-0.4966 Y1.4550  
G01 X-0.5034 Y1.4550  
G01 X-0.5102 Y1.4537  
G01 X-0.5166 Y1.4510  
G01 X-0.5223 Y1.4472  
G01 X-0.5272 Y1.4423  
G01 X-0.5310 Y1.4366  
G01 X-0.5337 Y1.4302  
G01 X-0.5350 Y1.4234  
G01 X-0.5350 Y1.4166  
G01 X-0.5337 Y1.4098  
G01 X-0.5310 Y1.4034  
G01 X-0.5272 Y1.3977  
G01 X-0.5223 Y1.3928  
G01 X-0.5166 Y1.3890  
G01 X-0.5102 Y1.3863  
G01 X-0.5034 Y1.3850  
G01 X-0.4966 Y1.3850  
G01 X-0.4898 Y1.3863  
G01 X-0.4834 Y1.3890  
G01 X-0.4777 Y1.3928  
G01 X-0.4728 Y1.3977  
G00 Z0.0500  
G00 X-0.2272 Y1.3977  
G01 Z-0.0035 F10    
G01 X-0.2223 Y1.3928  F20    
G01 X-0.2166 Y1.3890  
G01 X-0.2102 Y1.3863  
G01 X-0.2034 Y1.3850  
G01 X-0.1966 Y1.3850  
G01 X-0.1898 Y1.3863  
G01 X-0.1834 Y1.3890  
G01 X-0.1777 Y1.3928  
G01 X-0.1728 Y1.3977  
G01 X-0.1690 Y1.4034  
G01 X-0.1663 Y1.4098  
G01 X-0.1650 Y1.4166  
G01 X-0.1650 Y1.4234  
G01 X-0.1663 Y1.4302  
G01 X-0.1690 Y1.4366  
G01 X-0.1728 Y1.4423  
G01 X-0.1777 Y1.4472  
G01 X-0.1834 Y1.4510  
G01 X-0.1898 Y1.4537  
G01 X-0.1966 Y1.4550  
G01 X-0.2034 Y1.4550  
G01 X-0.2102 Y1.4537  
G01 X-0.2166 Y1.4510  
G01 X-0.2223 Y1.4472  
G01 X-0.2272 Y1.4423  
G01 X-0.2310 Y1.4366  
G01 X-0.2337 Y1.4302  
G01 X-0.2350 Y1.4234  
G01 X-0.2350 Y1.4166  
G01 X-0.2337 Y1.4098  
G01 X-0.2310 Y1.4034  
G01 X-0.2272 Y1.3977  
G00 Z0.0500  
G00 X-0.2223 Y1.8312  
G01 Z-0.0035 F10    
G01 X-0.2204 Y1.8294  F20    
G01 X-0.2185 Y1.8275  
G01 X-0.2183 Y1.8274  
G01 X-0.2182 Y1.8273  
G01 X-0.2160 Y1.8258  
G01 X-0.2137 Y1.8243  
G01 X-0.2136 Y1.8242  
G01 X-0.2134 Y1.8241  
G01 X-0.2109 Y1.8231  
G01 X-0.2085 Y1.8221  
G01 X-0.2083 Y1.8221  
G01 X-0.2081 Y1.8220  
G01 X-0.2055 Y1.8215  
G01 X-0.2029 Y1.8210  
G01 X-0.2027 Y1.8210  
G01 X-0.2025 Y1.8210  
G01 X-0.1998 Y1.8210  
G01 X-0.1932 Y1.8210  
G01 X-0.1897 Y1.8161  
G01 X-0.1839 Y1.8103  
G01 X-0.1773 Y1.8055  
G01 X-0.1700 Y1.8018  
G01 X-0.1622 Y1.7993  
G01 X-0.1541 Y1.7980  
G01 X-0.1459 Y1.7980  
G01 X-0.1378 Y1.7993  
G01 X-0.1300 Y1.8018  
G01 X-0.1227 Y1.8055  
G01 X-0.1161 Y1.8103  
G01 X-0.1103 Y1.8161  
G01 X-0.1055 Y1.8227  
G01 X-0.1018 Y1.8300  
G01 X-0.0993 Y1.8378  
G01 X-0.0980 Y1.8459  
G01 X-0.0980 Y1.8541  
G01 X-0.0993 Y1.8622  
G01 X-0.1018 Y1.8700  
G01 X-0.1055 Y1.8773  
G01 X-0.1103 Y1.8839  
G01 X-0.1161 Y1.8897  
G01 X-0.1227 Y1.8945  
G01 X-0.1300 Y1.8982  
G01 X-0.1378 Y1.9007  
G01 X-0.1459 Y1.9020  
G01 X-0.1541 Y1.9020  
G01 X-0.1622 Y1.9007  
G01 X-0.1700 Y1.8982  
G01 X-0.1773 Y1.8945  
G01 X-0.1839 Y1.8897  
G01 X-0.1850 Y1.8886  
G01 X-0.2308 Y1.9955  
G01 X-0.2217 Y2.2788  
G01 X-0.2150 Y2.2855  
G01 X-0.2150 Y2.3145  
G01 X-0.2355 Y2.3350  
G01 X-0.2645 Y2.3350  
G01 X-0.2850 Y2.3145  
G01 X-0.2850 Y2.2855  
G01 X-0.2797 Y2.2802  
G01 X-0.2889 Y1.9931  
G01 X-0.2890 Y1.9925  
G01 X-0.2890 Y1.9903  
G01 X-0.2891 Y1.9881  
G01 X-0.2890 Y1.9874  
G01 X-0.2890 Y1.9868  
G01 X-0.2885 Y1.9846  
G01 X-0.2881 Y1.9824  
G01 X-0.2879 Y1.9818  
G01 X-0.2878 Y1.9812  
G01 X-0.2869 Y1.9792  
G01 X-0.2861 Y1.9771  
G01 X-0.2858 Y1.9765  
G01 X-0.2267 Y1.8387  
G01 X-0.2257 Y1.8363  
G01 X-0.2256 Y1.8361  
G01 X-0.2255 Y1.8360  
G01 X-0.2240 Y1.8337  
G01 X-0.2225 Y1.8315  
G01 X-0.2224 Y1.8314  
G01 X-0.2223 Y1.8312  
G00 Z0.0500  
G00 X-0.5150 Y1.8855  
G01 Z-0.0035 F10    
G01 X-0.5150 Y1.9145  F20    
G01 X-0.5355 Y1.9350  
G01 X-0.5565 Y1.9350  
G01 X-0.6170 Y1.9955  
G01 X-0.6190 Y1.9975  
G01 X-0.6214 Y1.9991  
G01 X-0.6237 Y2.0007  
G01 X-0.6264 Y2.0018  
G01 X-0.6290 Y2.0029  
G01 X-0.6318 Y2.0034  
G01 X-0.8804 Y2.0532  
G01 X-0.8818 Y2.0536  
G01 X-0.8832 Y2.0537  
G01 X-0.8846 Y2.0540  
G01 X-0.8860 Y2.0540  
G01 X-0.9024 Y2.0556  
G01 X-0.9038 Y2.0575  
G01 X-0.9082 Y2.0613  
G01 X-0.9087 Y2.0616  
G01 X-0.9106 Y2.0635  
G01 X-0.9120 Y2.0635  
G01 X-0.9131 Y2.0641  
G01 X-0.9484 Y2.0759  
G01 X-0.9902 Y2.1093  
G01 X-0.9903 Y2.1102  
G01 X-0.9930 Y2.1166  
G01 X-0.9968 Y2.1223  
G01 X-1.0017 Y2.1272  
G01 X-1.0074 Y2.1310  
G01 X-1.0138 Y2.1337  
G01 X-1.0206 Y2.1350  
G01 X-1.0794 Y2.1350  
G01 X-1.0862 Y2.1337  
G01 X-1.0926 Y2.1310  
G01 X-1.0983 Y2.1272  
G01 X-1.1032 Y2.1223  
G01 X-1.1070 Y2.1166  
G01 X-1.1097 Y2.1102  
G01 X-1.1110 Y2.1034  
G01 X-1.1110 Y2.0966  
G01 X-1.1097 Y2.0898  
G01 X-1.1070 Y2.0834  
G01 X-1.1032 Y2.0777  
G01 X-1.0983 Y2.0728  
G01 X-1.0926 Y2.0690  
G01 X-1.0862 Y2.0663  
G01 X-1.0794 Y2.0650  
G01 X-1.0277 Y2.0650  
G01 X-0.9811 Y2.0277  
G01 X-0.9793 Y2.0262  
G01 X-0.9788 Y2.0259  
G01 X-0.9784 Y2.0256  
G01 X-0.9764 Y2.0245  
G01 X-0.9744 Y2.0234  
G01 X-0.9738 Y2.0232  
G01 X-0.9733 Y2.0229  
G01 X-0.9711 Y2.0223  
G01 X-0.9597 Y2.0185  
G01 X-0.9597 Y2.0143  
G01 X-0.9394 Y1.9940  
G01 X-0.9106 Y1.9940  
G01 X-0.9068 Y1.9978  
G01 X-0.8918 Y1.9963  
G01 X-0.6518 Y1.9483  
G01 X-0.5810 Y1.8775  
G01 X-0.5762 Y1.8743  
G01 X-0.5721 Y1.8726  
G01 X-0.5645 Y1.8650  
G01 X-0.5355 Y1.8650  
G01 X-0.5150 Y1.8855  
G00 Z0.0500  
G00 X-0.7150 Y1.8855  
G01 Z-0.0035 F10    
G01 X-0.7150 Y1.9145  F20    
G01 X-0.7355 Y1.9350  
G01 X-0.7567 Y1.9350  
G01 X-0.7595 Y1.9372  
G01 X-0.8115 Y1.9632  
G01 X-0.8135 Y1.9643  
G01 X-0.8141 Y1.9645  
G01 X-0.8146 Y1.9647  
G01 X-0.8168 Y1.9653  
G01 X-0.8190 Y1.9660  
G01 X-0.8195 Y1.9661  
G01 X-0.8201 Y1.9662  
G01 X-0.8224 Y1.9664  
G01 X-0.9298 Y1.9783  
G01 X-0.9893 Y2.0047  
G01 X-0.9903 Y2.0102  
G01 X-0.9930 Y2.0166  
G01 X-0.9968 Y2.0223  
G01 X-1.0017 Y2.0272  
G01 X-1.0074 Y2.0310  
G01 X-1.0138 Y2.0337  
G01 X-1.0206 Y2.0350  
G01 X-1.0794 Y2.0350  
G01 X-1.0862 Y2.0337  
G01 X-1.0926 Y2.0310  
G01 X-1.0983 Y2.0272  
G01 X-1.1032 Y2.0223  
G01 X-1.1070 Y2.0166  
G01 X-1.1097 Y2.0102  
G01 X-1.1110 Y2.0034  
G01 X-1.1110 Y1.9966  
G01 X-1.1097 Y1.9898  
G01 X-1.1070 Y1.9834  
G01 X-1.1032 Y1.9777  
G01 X-1.0983 Y1.9728  
G01 X-1.0926 Y1.9690  
G01 X-1.0862 Y1.9663  
G01 X-1.0794 Y1.9650  
G01 X-1.0427 Y1.9650  
G01 X-0.9504 Y1.9240  
G01 X-0.9490 Y1.9232  
G01 X-0.9478 Y1.9228  
G01 X-0.9467 Y1.9223  
G01 X-0.9451 Y1.9220  
G01 X-0.9435 Y1.9215  
G01 X-0.9423 Y1.9214  
G01 X-0.9411 Y1.9211  
G01 X-0.9395 Y1.9210  
G01 X-0.8333 Y1.9092  
G01 X-0.7854 Y1.8853  
G01 X-0.7845 Y1.8850  
G01 X-0.7790 Y1.8795  
G01 X-0.7790 Y1.7705  
G01 X-0.7850 Y1.7645  
G01 X-0.7850 Y1.7355  
G01 X-0.7645 Y1.7150  
G01 X-0.7355 Y1.7150  
G01 X-0.7150 Y1.7355  
G01 X-0.7150 Y1.7645  
G01 X-0.7210 Y1.7705  
G01 X-0.7210 Y1.8795  
G01 X-0.7150 Y1.8855  
G00 Z0.0500  
G00 X-0.7150 Y2.0855  
G01 Z-0.0035 F10    
G01 X-0.7150 Y2.1135  F20    
G01 X-0.6613 Y2.1493  
G01 X-0.6589 Y2.1509  
G01 X-0.6565 Y2.1525  
G01 X-0.6545 Y2.1545  
G01 X-0.6525 Y2.1565  
G01 X-0.6509 Y2.1589  
G01 X-0.6493 Y2.1612  
G01 X-0.6482 Y2.1639  
G01 X-0.6471 Y2.1665  
G01 X-0.6466 Y2.1693  
G01 X-0.6460 Y2.1721  
G01 X-0.6460 Y2.1750  
G01 X-0.6460 Y2.1778  
G01 X-0.6460 Y2.3295  
G01 X-0.6400 Y2.3355  
G01 X-0.6400 Y2.3645  
G01 X-0.6605 Y2.3850  
G01 X-0.6895 Y2.3850  
G01 X-0.7100 Y2.3645  
G01 X-0.7100 Y2.3355  
G01 X-0.7040 Y2.3295  
G01 X-0.7040 Y2.1905  
G01 X-0.7632 Y2.1511  
G01 X-0.9358 Y2.1644  
G01 X-0.9892 Y2.2044  
G01 X-0.9903 Y2.2102  
G01 X-0.9930 Y2.2166  
G01 X-0.9968 Y2.2223  
G01 X-1.0017 Y2.2272  
G01 X-1.0074 Y2.2310  
G01 X-1.0138 Y2.2337  
G01 X-1.0206 Y2.2350  
G01 X-1.0794 Y2.2350  
G01 X-1.0862 Y2.2337  
G01 X-1.0926 Y2.2310  
G01 X-1.0983 Y2.2272  
G01 X-1.1032 Y2.2223  
G01 X-1.1070 Y2.2166  
G01 X-1.1097 Y2.2102  
G01 X-1.1110 Y2.2034  
G01 X-1.1110 Y2.1966  
