(/Applications/pcbgcode.repo/pcb-gcode.ulp)
(Copyright 2005 - 2012 by John Johnson)
(See readme.txt for licensing terms.)
(This file generated from the board:)
(.../808-Diginoise/eagle/808-Diginoise.brd)
(Current profile is .../pcbgcode.repo/profiles/mach.pp  )
(This file generated 4/24/16 11:08 AM)
(Settings from pcb-machine.h)
(spindle on time = 0.0000)
(spindle speed = 15000.0000)
(milling depth = -0.0700)
(tool change at 0.0000  0.0000  1.5000  )
(feed rate xy = F10    )
(feed rate z  = F5     )
(Z Axis Settings)
(  High     Up        Down     Drill)
(0.2500  	0.0500  	-0.0035 	-0.0750 )
(Settings from pcb-defaults.h)
(isolate min = 0.0060)
(isolate max = 0.0200)
(isolate step = 0.0015)
(Generated bottom outlines, bottom drill, )
(Unit of measure: inch)
(Inch Mode)
G20
(Absolute Coordinates)
G90
S15000
G00 Z0.2500  
G00 X0.0000  Y0.0000  
M03
G04 P0.000000
G00 Z0.0500  
G00 X-0.0300 Y-0.0300 
G01 Z-0.0700 F5     
G01 X-0.0300 Y2.1000  F10    
G01 X0.0000  Y2.1500  
G01 X1.9700  Y2.1500  
G01 X2.0100  Y2.1000  
G01 X2.0100  Y0.0300  
G01 X1.9500  Y-0.0300 
G01 X-0.0300 Y-0.0300 
G00 Z0.0500  
G00 X0.3900  Y1.4100  
G01 Z-0.0700 F5     
G01 X0.4400  Y1.4100  F10    
G01 X0.4400  Y1.4600  
G01 X0.4000  Y1.4600  
G00 Z0.0500  
G00 X0.3900  Y1.4600  
G01 Z-0.0700 F5     
G01 X0.3900  Y1.4100  F10    
G00 Z0.0500  
G00 X1.8200  Y1.9800  
G01 Z-0.0700 F5     
G01 X1.8700  Y1.9800  F10    
G01 X1.8700  Y2.0300  
G01 X1.8300  Y2.0300  
G00 Z0.0500  
G00 X1.8200  Y2.0300  
G01 Z-0.0700 F5     
G01 X1.8200  Y1.9800  F10    
G00 Z0.0500  
G00 X1.8200  Y0.1700  
G01 Z-0.0700 F5     
G01 X1.8200  Y0.1200  F10    
G01 X1.8700  Y0.1200  
G01 X1.8700  Y0.1700  
G01 X1.8300  Y0.1700  
G00 Z0.2500  
M05
M02
