(/Applications/pcbgcode.repo/pcb-gcode.ulp)
(Copyright 2005 - 2012 by John Johnson)
(See readme.txt for licensing terms.)
(This file generated from the board:)
(.../808-Diginoise/eagle/808-Diginoise.brd)
(Current profile is .../pcbgcode.repo/profiles/mach.pp  )
(This file generated 4/24/16 11:08 AM)
(Settings from pcb-machine.h)
(spindle on time = 0.0000)
(spindle speed = 20000.0000)
(tool change at 0.0000  0.0000  1.5000  )
(feed rate xy = F0     )
(feed rate z  = F20    )
(Z Axis Settings)
(  High     Up        Down     Drill)
(0.2500  	0.0500  	-0.0035 	-0.0750 )
(Settings from pcb-defaults.h)
(isolate min = 0.0060)
(isolate max = 0.0200)
(isolate step = 0.0015)
(Generated bottom outlines, bottom drill, )
(Unit of measure: inch)
( Tool|       Size       |  Min Sub |  Max Sub |   Count )
( T01 | 0.800mm 0.0315in | 0.0000in | 0.0000in |       0 )
( T02 | 0.813mm 0.0320in | 0.0000in | 0.0000in |       0 )
( T03 | 1.016mm 0.0400in | 0.0000in | 0.0000in |       0 )
( T04 | 1.200mm 0.0472in | 0.0000in | 0.0000in |       0 )
( T05 | 1.300mm 0.0512in | 0.0000in | 0.0000in |       0 )
(Inch Mode)
G20
(Absolute Coordinates)
G90
S20000
G00 Z0.2500  
G00 X0.0000  Y0.0000  
M03
G04 P0.000000
M05
G00 Z1.5000  
M06 T01  ; 0.0315  
G01 Z0.0000  F20    
M06 
G00 Z0.0500  
M03
G04 P0.000000
G82 X-0.7713 Y1.2750  Z-0.0750 F20    R0.0500  P0.020000
G82 X-0.9287 Y1.2750  
G82 X-0.9250 Y1.0787  
G82 X-0.9250 Y0.9213  
G82 X-1.5713 Y0.8000  
G82 X-1.7287 Y0.8000  
G82 X-1.6713 Y1.0000  
G82 X-1.8287 Y1.0000  
G82 X-1.6787 Y1.7500  
G82 X-1.5213 Y1.7500  
G82 X-0.9587 Y1.6500  
G82 X-0.8013 Y1.6500  
M05
G00 Z1.5000  
G00 X0.0000  Y0.0000  
M06 T02  ; 0.0320  
G01 Z0.0000  F20    
M06 
G00 Z0.0500  
M03
G04 P0.000000
G82 X-0.2000 Y0.1700  Z-0.0750 F20    R0.0500  P0.020000
G82 X-0.3000 Y0.1700  
G82 X-0.4000 Y0.1700  
G82 X-0.5000 Y0.1700  
G82 X-0.5000 Y0.4700  
G82 X-0.4000 Y0.4700  
G82 X-0.3000 Y0.4700  
G82 X-0.2000 Y0.4700  
G82 X-0.5500 Y0.8000  
G82 X-0.5500 Y0.9500  
G82 X-0.5500 Y1.1500  
G82 X-0.7500 Y1.1500  
G82 X-0.7500 Y0.9500  
G82 X-0.7500 Y0.8000  
G82 X-1.0500 Y0.9500  
G82 X-1.0500 Y1.0500  
G82 X-1.0500 Y1.1500  
G82 X-1.0500 Y1.2500  
G82 X-1.0500 Y1.3500  
G82 X-1.0500 Y1.4500  
G82 X-1.0500 Y1.5500  
G82 X-0.8800 Y1.5000  
G82 X-0.8750 Y1.4000  
G82 X-0.6750 Y1.4000  
G82 X-0.6800 Y1.5000  
G82 X-0.8900 Y1.7550  
G82 X-1.0900 Y1.7550  
G82 X-1.2500 Y1.6750  
G82 X-1.3500 Y1.5500  
G82 X-1.3500 Y1.4500  
G82 X-1.3500 Y1.3500  
G82 X-1.3500 Y1.2500  
G82 X-1.3500 Y1.1500  
G82 X-1.3500 Y1.0500  
G82 X-1.3500 Y0.9500  
G82 X-1.4750 Y0.9500  
G82 X-1.5000 Y1.0750  
G82 X-1.6000 Y1.2000  
G82 X-1.7000 Y1.2000  
G82 X-1.8000 Y1.2000  
G82 X-1.6750 Y1.3750  
G82 X-1.7000 Y1.5500  
G82 X-1.6000 Y1.5500  
G82 X-1.5000 Y1.5500  
G82 X-1.4750 Y1.3750  
G82 X-1.5000 Y1.2750  
G82 X-1.3500 Y0.8000  
G82 X-1.3500 Y0.7000  
G82 X-1.4750 Y0.7500  
G82 X-1.1500 Y0.8000  
G82 X-1.1500 Y0.7000  
G82 X-0.2500 Y1.3500  
G82 X-0.2500 Y1.5500  
G82 X-0.8000 Y1.9500  
G82 X-1.0000 Y1.9500  
G82 X-1.2500 Y1.8750  
M05
G00 Z1.5000  
G00 X0.0000  Y0.0000  
M06 T03  ; 0.0400  
G01 Z0.0000  F20    
M06 
G00 Z0.0500  
M03
G04 P0.000000
G82 X-0.7600 Y0.4700  Z-0.0750 F20    R0.0500  P0.020000
G82 X-0.7600 Y0.5700  
G82 X-0.8600 Y0.5700  
G82 X-0.8600 Y0.4700  
G82 X-0.9600 Y0.4700  
G82 X-0.9600 Y0.5700  
G82 X-1.0600 Y0.5700  
G82 X-1.0600 Y0.4700  
G82 X-1.0500 Y0.2350  
G82 X-1.1500 Y0.2350  
G82 X-1.1500 Y0.1350  
G82 X-1.0500 Y0.1350  
G82 X-0.9500 Y0.1350  
G82 X-0.8500 Y0.1350  
G82 X-0.8500 Y0.2350  
G82 X-0.9500 Y0.2350  
G82 X-1.2500 Y0.2350  
G82 X-1.2500 Y0.1350  
G82 X-1.3500 Y0.1350  
G82 X-1.4500 Y0.1350  
G82 X-1.4500 Y0.2350  
G82 X-1.3500 Y0.2350  
G82 X-1.5500 Y0.2350  
G82 X-1.5500 Y0.1350  
M05
G00 Z1.5000  
G00 X0.0000  Y0.0000  
M06 T04  ; 0.0472  
G01 Z0.0000  F20    
M06 
G00 Z0.0500  
M03
G04 P0.000000
G82 X-0.1500 Y0.7031  Z-0.0750 F20    R0.0500  P0.020000
G82 X-0.1500 Y0.9000  
G82 X-0.1500 Y1.0969  
M05
G00 Z1.5000  
G00 X0.0000  Y0.0000  
M06 T05  ; 0.0512  
G01 Z0.0000  F20    
M06 
G00 Z0.0500  
M03
G04 P0.000000
G82 X-0.0980 Y1.8130  Z-0.0750 F20    R0.0500  P0.020000
G82 X-0.0984 Y1.8469  
G82 X-0.0980 Y1.8800  
G82 X-0.4980 Y1.6420  
G82 X-0.5315 Y1.6421  
G82 X-0.5650 Y1.6420  
G82 X-0.6180 Y1.8140  
G82 X-0.6181 Y1.8469  
G82 X-0.6180 Y1.8800  
T01 
G00 Z0.2500  
M05
M02
